!!!!SEGMENT: pl-sa--189-a-v-19--006_luna-georgius--missa-in-d-agnus-dei.krn
!!!cenid: 17xx:537
!!!COM: Luna, Georgius
!!!COM-rismID: pe41010079
!!!CDT:
!!!CNT:
!!!OPR: Missa in D
!!!OTL: Agnus Dei
!!!OMV: 006
!!!PDT:
!!!AGN: Sacred; Mass
!!!SMS-siglum: PL-SA
!!!SMS-shelfmark: 189/A V 19
!!!SMS-shelfwork: 001-006 M
!!!SMS-variant:
!!!SMS-altvar:
!!!NIFC-rismSourceID: 1001035910
!!!NIFC-islandoraID:
!!!URL-pdf-islandora:
!!!URL-scan: https://bc.bdsandomierz.pl/dlibra/publication/1526/edition/1494/content @EN{Scan in the Sandomierz Diocese Digital Library} @PL{Skany w portalu Cyfrowa Biblioteka Diecezjalna w Sandomierzu}
!!!ONB-nifc: UWAGA: części Mszy: Kyrie, Gloria, Credo, Sanctus, Benedictus, Agnus Dei. UWAGA: partie clarino primo i corni secundo pochodzą z innej mszy (nie uwzględniać)
!!!AIN: 2 empty 1 flt 1 tenor 2 tromp 2 violn 1 vox
!!!key:
**kern	**dynam	**kern	**dynam	**kern	**dynam	**kern	**text	**kern	**text	**kern	**text	**kern	**dynam	**kern	**dynam	**kern
*part9	*part9	*part8	*part8	*part7	*part7	*part6	*part6	*part5	*part5	*part4	*part4	*part3	*part3	*part2	*part2	*part1
*staff9	*	*staff8	*	*staff7	*	*staff6	*staff6	*staff5	*staff5	*staff4	*staff4	*staff3	*	*staff2	*	*staff1
*Iempty	*	*Ivioln	*	*Ivioln	*	*Iempty	*	*Itenor	*	*Ivox	*	*Itromp	*	*Itromp	*	*Iflt
*I"Fondamento	*	*I"Violino 2do.	*	*I"Violino Primo	*	*I"Baſso	*	*I"Tenore	*	*I"Canto.	*	*I"Tromba Secunda	*	*I"Tromba Pryma	*	*I"Flauto Traver.
*I'org	*	*I'vl 2	*	*I'vl 1	*	*I'B	*	*I'T	*	*I'S	*	*I'tr 2	*	*I'tr 1	*	*I'fl
*clefF4	*	*clefG2	*	*clefG2	*	*clefF4	*	*clefC4	*	*clefC1	*	*clefG2	*	*clefG2	*	*clefG2
*	*	*	*	*	*	*	*	*	*	*	*	*ITrd-1c-2	*	*ITrd-1c-2	*	*
*k[f#c#]	*	*k[f#c#]	*	*k[f#c#]	*	*k[f#c#]	*	*k[f#c#]	*	*k[f#c#]	*	*k[f#c#]	*	*k[f#c#]	*	*k[f#c#]
*D:	*	*D:	*	*D:	*	*D:	*	*D:	*	*D:	*	*D:	*	*D:	*	*D:
*M4/4	*	*M4/4	*	*M4/4	*	*M4/4	*	*M4/4	*	*M4/4	*	*M4/4	*	*M4/4	*	*M4/4
*met(c)	*	*met(c)	*	*met(c)	*	*met(c)	*	*met(c)	*	*met(c)	*	*met(c)	*	*met(c)	*	*met(c)
=1	=1	=1	=1	=1	=1	=1	=1	=1	=1	=1	=1	=1	=1	=1	=1	=1
*2\right	*	*2\right	*	*2\right	*	*2\right	*	*2\right	*	*2\right	*	*2\right	*	*2\right	*	*
!LO:TX:b:t=Agnus	!	!LO:TX:b:t=Agnus	!	!LO:TX:b:t=Agnus	!	!	!	!LO:TX:a:t=adagio	!	!LO:TX:a:t=adagio	!	!	!	!LO:TX:b:t=Agnus	!	!
!LO:TX:a:t=adagio	!	!LO:TX:a:t=adagio	!	!LO:TX:a:t=adagio	!	!LO:TX:a:t=adagio	!	!	!	!	!	!	!	!LO:TX:a:t=adagio	!	!
8D\L	.	16d/LL	.	16d/LL	.	4D\	a-	4F#/	A-	4a\	A-	4dd\	.	4ff#\	.	1ryy
.	.	16d/	.	(<16f#/	.	.	.	.	.	.	.	.	.	.	.	.
8D\	.	(>16f#/	.	16a/	.	.	.	.	.	.	.	.	.	.	.	.
.	.	16a/JJ)	.	16dd/JJ)	.	.	.	.	.	.	.	.	.	.	.	.
!	!	!LO:TX:a:t=P:problem=mixed beam	!	!	!	!	!	!	!	!	!	!	!	!	!	!
8D\	.	16dd\LL	.	16ff#\LL	.	4D\	-gnuſ	4F#/	-gnuſ	4a\	-gnus	8dd\L	.	8ff#\L	.	.
.	.	(>16ff#\	.	(>16aa\	.	.	.	.	.	.	.	.	.	.	.	.
8D\J	.	16dd\)	.	16ff#\)	.	.	.	.	.	.	.	8dd\J	.	8ff#\J	.	.
.	.	16f#\JJ	.	16dd\JJ	.	.	.	.	.	.	.	.	.	.	.	.
!LO:TX:a:t=P:problem=mixed beam	!	!	!	!	!	!	!	!	!	!	!	!	!	!	!	!
8A\L	.	4f#/	.	4dd\	.	4A\	De-	4F#/	De-	4dd\	De-	4dd\	.	4ff#\	.	.
8AA/	.	.	.	.	.	.	.	.	.	.	.	.	.	.	.	.
.	.	8qqf#/	.	8qqdd/	.	.	.	8qqF#/	.	8qqdd/	.	.	.	8qqff#/	.	.
8AA/	.	4e/	.	4cc#\	.	4AA/	-i	4E/	-i	4cc#\	-i	4a\	.	4ee\	.	.
8AA/J	.	.	.	.	.	.	.	.	.	.	.	.	.	.	.	.
=2	=2	=2	=2	=2	=2	=2	=2	=2	=2	=2	=2	=2	=2	=2	=2	=2
8AA/L	.	16c#/LL	.	16A/LL	.	4A\	a-	4G/	a-	4ee\	a-	4a/	.	4ee\	.	1ryy
.	.	(<16A/	.	(<16c#/	.	.	.	.	.	.	.	.	.	.	.	.
8AA/	.	16c#/	.	16e/	.	.	.	.	.	.	.	.	.	.	.	.
.	.	16e/JJ)	.	16g/JJ)	.	.	.	.	.	.	.	.	.	.	.	.
!	!	!LO:TX:a:t=P:problem=mixed beam	!	!	!	!	!	!	!	!	!	!LO:TX:a:t=P:problem=mixed beam	!	!	!	!
8AA/	.	(>16g/LL	.	(>16cc#\LL	.	4A\	-gnuſ	4G/	-gnuſ	4ee\	-gnuſ	8a/L	.	8ee\L	.	.
.	.	16ee\)	.	16ee\)	.	.	.	.	.	.	.	.	.	.	.	.
8AA/J	.	(>16g/	.	(>16g\	.	.	.	.	.	.	.	8ee\J	.	8gg\J	.	.
.	.	16ee\JJ)	.	16gg\JJ)	.	.	.	.	.	.	.	.	.	.	.	.
!	!	!LO:TX:a:t=t.	!	!LO:TX:a:t=t.	!	!	!	!	!	!	!	!	!	!	!	!
8AA/L	.	4ee\	.	4gg\	.	4A\	De-	4G/	De-	4ee\	De-	4ee\	.	4gg\	.	.
8AA/	.	.	.	.	.	.	.	.	.	.	.	.	.	.	.	.
.	.	8qqee/	.	8qqgg/	.	.	.	8qqG/	.	8qqee/	.	8qqee/	.	8qqgg/	.	.
8D/	.	4dd\	.	4ff#\	.	4D\	-i	4F#/	-i	4dd\	-i	4dd\	.	4ff#\	.	.
8D/J	.	.	.	.	.	.	.	.	.	.	.	.	.	.	.	.
=3	=3	=3	=3	=3	=3	=3	=3	=3	=3	=3	=3	=3	=3	=3	=3	=3
8D\L	.	(>16a\LL	.	(>16dd\LL	.	4D\	qui	4F#/	qui	4dd\	qui	4ff#\	.	4aa\	.	1ryy
.	.	16dd\)	.	16ff#\	.	.	.	.	.	.	.	.	.	.	.	.
8D\	.	(>16ff#\	.	16aa\	.	.	.	.	.	.	.	.	.	.	.	.
.	.	16aa\JJ)	.	16ddd\JJ)	.	.	.	.	.	.	.	.	.	.	.	.
8D\	.	(>16ff#\LL	.	16aa\LL	.	4D\	tol-	(<8F#/L	tol-	8a\L	tol-	8r	.	8r	.	.
.	.	16dd\)	.	16ff#\	.	.	.	.	.	.	.	.	.	.	.	.
8D\J	.	(>16a\	.	16dd\	.	.	.	8A/J)	.	8ccn\J	.	8ff#\	.	8aa\	.	.
.	.	16aa\JJ)	.	16cccn\JJ	.	.	.	.	.	.	.	.	.	.	.	.
8D\L	.	4aa\	.	4ccc\	.	4D\	-liſ	4A/	-tol-	4cc\	-liſ	4ff#\	.	(>4aa\	.	.
8D\	.	.	.	.	.	.	.	.	.	.	.	.	.	.	.	.
!	!	!	!	!	!	!	!	!	!	!	!	!LO:SIC:o=8ff	!	!	!	!
8D\	.	16.gg\LL	.	16bb\LL	.	4D\	pec-	4G/	-liſ	4b\	pec-	8gg\L	.	8bb\L)	.	.
.	.	.	.	16dd\	.	.	.	.	.	.	.	.	.	.	.	.
.	.	32dd\K	.	.	.	.	.	.	.	.	.	.	.	.	.	.
!	!	!	!	!	!	!	!	!	!	!	!	!LO:SIC:o=8ff	!	!	!	!
8D\J	.	16gg\	.	16bb\	.	.	.	.	.	.	.	8gg\J	.	8bb\J	.	.
.	.	16gg\JJ	.	16bb\JJ	.	.	.	.	.	.	.	.	.	.	.	.
!	!	!	!	!	!	!LO:LB:g=original	!	!	!	!	!	!	!	!	!	!
=4	=4	=4	=4	=4	=4	=4	=4	=4	=4	=4	=4	=4	=4	=4	=4	=4
8D\L	.	4gg\	.	4bb\	.	4d\	-ca-	4G/	pec-	4b\	-ca-	(>4gg\	.	4bb\	.	1ryy
8D\	.	.	.	.	.	.	.	.	.	.	.	.	.	.	.	.
8D\	.	16.ff#\LL	.	16aa\LL	.	4D\	-ta	4F#/	-ca-	4a\	-ta	8ff#\L)	.	8aa\L	.	.
.	.	.	.	16dd\	.	.	.	.	.	.	.	.	.	.	.	.
.	.	32dd\K	.	.	.	.	.	.	.	.	.	.	.	.	.	.
8D\J	.	16ff#\	.	16aa\	.	.	.	.	.	.	.	8ff#\J	.	8aa\J	.	.
.	.	16ff#\JJ	.	16aa\JJ	.	.	.	.	.	.	.	.	.	.	.	.
8AA/L	.	4ff#\	.	4gg\	.	4A\	mun-	4F#/	-ta	4a\	mun-	(>4ff#\	.	(>4aa\	.	.
8AA/	.	.	.	.	.	.	.	.	.	.	.	.	.	.	.	.
8AA/	.	16.ee\LL	.	16gg\LL	.	8AA/	-di	8E/	mundi	8g\	-di	8ee\L)	.	8gg\L)	.	.
.	.	.	.	16a\	.	.	.	.	.	.	.	.	.	.	.	.
.	.	32a\K	.	.	.	.	.	.	.	.	.	.	.	.	.	.
8AA/J	.	16ee\	.	16gg\	.	8AA/	pec-	8e\	pec-	8g\	pec-	8ee\J	.	8gg\J	.	.
.	.	16ee\JJ	.	16gg\JJ	.	.	.	.	.	.	.	.	.	.	.	.
=5	=5	=5	=5	=5	=5	=5	=5	=5	=5	=5	=5	=5	=5	=5	=5	=5
8AA/L	.	4ee\	.	4gg\	.	4AA/	-ca-	4e\	-ca-	4g\	-ca-	(>4ee\	.	4gg\	.	1ryy
8AA/J	.	.	.	.	.	.	.	.	.	.	.	.	.	.	.	.
!	!	!	!	!	!	!	!	!LO:TX:a:t=P:problem=mixed beam	!	!	!	!	!	!	!	!
8D\L	.	8dd\L	.	16ff#\LL	.	8D\L	-ta	8d\L	-ta	8f#\L	-ta	8dd\L)	.	8ff#\L	.	.
.	.	.	.	16aa\	.	.	.	.	.	.	.	.	.	.	.	.
8G#X\J	.	(>16ff#\L	.	16ddd\	.	8G#X\J	.	8F#/J	.	8dd\J	.	8dd\J	.	8ff#\J	.	.
.	.	16dd\JJ)	.	16ff#\JJ	.	.	.	.	.	.	.	.	.	.	.	.
!LO:TX:a:t=P:problem=mixed beam	!	!LO:TX:a:t=t.	!	!LO:TX:a:t=t.	!	!	!	!	!	!	!	!	!	!	!	!
8A\L	.	4dd\	.	4ff#\	.	4A\	mun-	4F#t/	mun-	4ddT\	mun-	4dd\	.	4ff#\	.	.
8AA/J	.	.	.	.	.	.	.	.	.	.	.	.	.	.	.	.
4AA/	.	4cc#\	.	4ee\	.	4AA/	-di	4E/	-di	4cc#\	-di	4a\	.	4ee\	.	.
!	!	!	!	!	!	!	!	!	!	!LO:LB:g=original	!	!	!	!	!	!
=6	=6	=6	=6	=6	=6	=6	=6	=6	=6	=6	=6	=6	=6	=6	=6	=6
8E\L	.	16b\LL	.	16dd\LL	.	4E\	mi-	4B\	mi-	4dd\	mi-	8r	.	8r	.	1ryy
.	.	16dd\J	.	16bb\J	.	.	.	.	.	.	.	.	.	.	.	.
8E\	.	8b\J	.	8dd\J	.	.	.	.	.	.	.	16ee\LL	.	16ee\LL	.	.
.	.	.	.	.	.	.	.	.	.	.	.	16ee\JJ	.	16ee\JJ	.	.
8E\	.	(>16b\LL	.	(>16dd\LL	.	4E\	-se-	(>16B\LL	-se-	16dd\LL	-se-	4ee\	.	4ee\	.	.
.	.	16a\)	.	16cc#\)	.	.	.	16A\)	.	16cc#\	.	.	.	.	.	.
8E\J	.	(>16a\	.	(>16cc#\	.	.	.	(>16A\	.	16cc#\	.	.	.	.	.	.
.	.	16g\JJ)	.	16b\JJ)	.	.	.	16G#X\JJ)	.	16b\JJ	.	.	.	.	.	.
!	!	!LO:LB:g=original	!	!	!	!	!	!	!	!	!	!	!	!	!	!
!LO:TX:a:t=P:problem=mixed beam	!	!	!	!	!	!	!	!	!	!	!	!	!	!	!	!
8A\L	.	(<16.a/LL	.	16cc#\LL	.	4A\	-re-	4e\	-re-	4cc#\	-re-	8r	.	8r	.	.
.	.	.	.	16aa\J	.	.	.	.	.	.	.	.	.	.	.	.
.	.	32cc#/JK)	.	.	.	.	.	.	.	.	.	.	.	.	.	.
!	!	!LO:SIC:o=16e	!	!	!	!	!	!	!	!	!	!	!	!	!	!
8AA/	.	8e/J	.	8cc#\J	.	.	.	.	.	.	.	16a/LL	.	16ee\LL	.	.
.	.	.	.	.	.	.	.	.	.	.	.	16a/JJ	.	16ee\JJ	.	.
8AA/	.	(<16e/LL	.	(>16cc#\LL	.	4AA/	-re	(>16e\LL	.	(>16cc#\LL	.	4a/	.	4ee\	.	.
.	.	16d/)	.	16b\)	.	.	.	16d\)	.	16b\JJ)	.	.	.	.	.	.
8AA/J	.	(<16d/	.	(>16b\	.	.	.	(>16d\	.	(16b\LL	.	.	.	.	.	.
.	.	16c#/JJ)	.	16a\JJ)	.	.	.	16c#\JJ)	-re	16a\JJ)	-re	.	.	.	.	.
!	!	!	!	!LO:LB:g=original	!	!	!	!LO:LB:g=original	!	!	!	!	!	!	!	!
=7	=7	=7	=7	=7	=7	=7	=7	=7	=7	=7	=7	=7	=7	=7	=7	=7
8E\L	.	8B/L	.	8g#X/L	.	8E\L	no-	(>8B\L	no-	8g#X\L	no-	4ee\	.	4ee\	.	1ryy
(>16C#\L	.	16e/L	.	(<16a/L	.	(>16C#\L	.	8c#\J)	.	16a\L	.	.	.	.	.	.
16D\JJ)	.	16f#/JJ	.	16b/JJ)	.	16D\JJ)	.	.	.	16b\JJ	.	.	.	.	.	.
!LO:TX:a:t=P:problem=mixed beam	!	!	!	!	!	!	!	!	!	!	!	!LO:N:vis=16	!	!	!	!
!	!	!LO:TX:a:t=t.	!	!LO:TX:a:t=t.	!	!	!	!	!	!	!	!	!	!	!	!
8E\L	.	4g#X/	.	4b\	.	4E\	.	4G#X/	.	4bT\	.	8ee\L	.	8ee\L	.	.
!	!	!	!	!	!	!	!	!	!	!	!	!LO:TX:b:t=+	!	!	!	!
.	.	.	.	.	.	.	.	.	.	.	.	.	.	.	.	.
!	!	!	!	!	!	!	!	!	!	!	!	!LO:N:vis=16	!	!	!	!
8EE/J	.	.	.	.	.	.	.	.	.	.	.	8ee\J	.	8ee\J	.	.
!LO:TX:a:t=P:problem=mixed beam	!	!	!	!LO:SIC:o=8a	!	!	!	!	!	!	!	!	!	!	!	!
8AA/L	.	16a\LL	.	16a\LL	.	4AA/	-biſ	4A/	-bis	4a\	-biſ	4a/	.	4ee\	.	.
.	.	32cc#\L	.	(>32aa\L	.	.	.	.	.	.	.	.	.	.	.	.
.	.	32b\JJJ	.	32gg#X\JJJ)	.	.	.	.	.	.	.	.	.	.	.	.
8AA\	.	32cc#\LLL|	.	32aa\LLL	.	.	.	.	.	.	.	.	.	.	.	.
.	.	(>32cc#\	.	(>32ee\	.	.	.	.	.	.	.	.	.	.	.	.
.	.	32b\	.	32dd\	.	.	.	.	.	.	.	.	.	.	.	.
.	.	32a\JJJ)	.	32cc#\JJJ)	.	.	.	.	.	.	.	.	.	.	.	.
.	.	8qqcc#/	.	16qqee/	.	.	.	.	.	.	.	.	.	.	.	.
8E/	.	8b\L	.	8dd\L	.	4r	.	4r	.	4r	.	4r	.	4r	.	.
8E\J	.	(>16a\L	.	(>16cc#\L	.	.	.	.	.	.	.	.	.	.	.	.
.	.	16g#X\JJ)	.	16b\JJ)	.	.	.	.	.	.	.	.	.	.	.	.
!LO:LB:g=original	!	!	!	!	!	!	!	!	!	!	!	!	!	!	!	!
=8	=8	=8	=8	=8	=8	=8	=8	=8	=8	=8	=8	=8	=8	=8	=8	=8
8AA/L	.	16a/LL	.	16a/LL	.	4A\	a-	4c#\	a-	4e/	a-	4a/	.	4ee\	.	1ryy
.	.	(<16A/	.	16c#/	.	.	.	.	.	.	.	.	.	.	.	.
8AA/	.	16c#/	.	16e/	.	.	.	.	.	.	.	.	.	.	.	.
.	.	16e/JJ)	.	16a/JJ	.	.	.	.	.	.	.	.	.	.	.	.
!	!	!LO:TX:a:t=P:problem=mixed beam	!	!	!	!	!	!	!	!	!	!	!	!	!	!
8AA/	.	(>16a\LL	.	(>16cc#\LL	.	4A\	-gnuſ	4c#\	-gnuſ	4e/	-gnus	4r	.	4r	.	.
.	.	16cc#\	.	16ee\	.	.	.	.	.	.	.	.	.	.	.	.
8AA/J	.	16a\)	.	16cc#\	.	.	.	.	.	.	.	.	.	.	.	.
.	.	16c#/JJ	.	16a\JJ)	.	.	.	.	.	.	.	.	.	.	.	.
!	!	!	!	!	!	!LO:LB:g=original	!	!LO:TX:a:t=t	!	!	!	!	!	!	!	!
8E\L	.	4c#/	.	4a/	.	4E\	De-	4c#\	De-	4a\	De-	8r	.	8r	.	.
8E\	.	.	.	.	.	.	.	.	.	.	.	16ee\LL	.	16ee\LL	.	.
.	.	.	.	.	.	.	.	.	.	.	.	16ee\JJ	.	16ee\JJ	.	.
.	.	8qqc#/	.	8qqa/	.	.	.	8qqc#/	.	8qqa/	.	.	.	.	.	.
8E\	.	4B/	.	4g#X/	.	4E\	-i	4B\	-i	4g#X\	-i	4ee\	.	4ee\	.	.
8E\J	.	.	.	.	.	.	.	.	.	.	.	.	.	.	.	.
=9	=9	=9	=9	=9	=9	=9	=9	=9	=9	=9	=9	=9	=9	=9	=9	=9
!	!	!	!	!LO:TX:a:t=P:problem=mixed beam	!	!	!	!	!	!	!	!	!	!	!	!
8E\L	.	16b/LL	.	16dd\LL	.	4E\	a-	4B\	a-	4dd\	a-	4ee\	.	4ee\	.	1ryy
.	.	(<16B/	.	16e/	.	.	.	.	.	.	.	.	.	.	.	.
8E\	.	16e/	.	16g#X/	.	.	.	.	.	.	.	.	.	.	.	.
.	.	16g#X/JJ)	.	16b/JJ	.	.	.	.	.	.	.	.	.	.	.	.
!	!	!LO:TX:a:t=P:problem=mixed beam	!	!LO:TX:a:t=P:problem=mixed beam	!	!	!	!	!	!	!	!	!	!	!	!
8E\	.	(>16b\LL	.	(>16dd\LL	.	4E\	-gnuſ	4B\	-gnuſ	4dd\	-gnuſ	4r	.	4r	.	.
.	.	16dd\)	.	16bb\)	.	.	.	.	.	.	.	.	.	.	.	.
8E\J	.	(<16e/	.	(>16e/	.	.	.	.	.	.	.	.	.	.	.	.
.	.	16b/JJ)	.	16dd/JJ)	.	.	.	.	.	.	.	.	.	.	.	.
!LO:TX:a:t=P:problem=mixed beam	!	!	!	!LO:TX:a:t=t.	!	!	!	!	!	!	!	!	!	!	!	!
8E\L	.	4bT/	.	4dd\	.	4E\	De-	4B\	De-	4dd\	De-	8r	.	8r	.	.
8E\	.	.	.	.	.	.	.	.	.	.	.	16ee\LL	.	16ee\LL	.	.
.	.	.	.	.	.	.	.	.	.	.	.	16ee\JJ	.	16ee\JJ	.	.
.	.	8qqb/	.	8qqdd	.	.	.	8qqB/	.	8qqdd/	.	.	.	.	.	.
8A\	.	4a/	.	4cc#\	.	4A\	-i	4A\	-i	4cc#\	-i	4a/	.	4ee\	.	.
8AA\J	.	.	.	.	.	.	.	.	.	.	.	.	.	.	.	.
!	!	!	!	!	!	!	!	!	!	!	!	!LO:LB:g=original	!	!LO:LB:g=original	!	!
=10	=10	=10	=10	=10	=10	=10	=10	=10	=10	=10	=10	=10	=10	=10	=10	=10
!	!	!LO:TX:a:t=P:problem=mixed beam	!	!	!	!	!	!	!	!	!	!	!	!	!	!
8AA/L	.	16cc#\LL	.	16ee\LL	.	8A\	Qui	8c#\	qui	8ee\	Qui	4a/	.	4ee\	.	1ryy
.	.	(<16e/	.	16a\	.	.	.	.	.	.	.	.	.	.	.	.
8AA/	.	16a/	.	16cc#\	.	8A\	tol-	8c#\	tol-	8ee\	tol-	.	.	.	.	.
.	.	16cc#/JJ)	.	16ee\JJ	.	.	.	.	.	.	.	.	.	.	.	.
!	!	!	!	!	!	!	!	!	!	!	!	!LO:TX:a:t=P:problem=mixed beam	!	!	!	!
8AA/	.	(>16ee\LL	.	16ggn\LL	.	8A\	-liſ	8c#\	-liſ	8ee\	-liſ	8a/L	.	8ee\L	.	.
.	.	16cc#\)	.	16ee\	.	.	.	.	.	.	.	.	.	.	.	.
8AA/J	.	(>16a\	.	16cc#\	.	8A\	pec-	8e\	pec-	8ggn\	pec-	8ee\J	.	8gg\J	.	.
.	.	16ee\JJ)	.	16gg\JJ	.	.	.	.	.	.	.	.	.	.	.	.
!	!	!LO:TX:a:t=t.	!	!	!	!	!	!	!	!	!	!	!	!LO:TX:a:t=t.	!	!
8AA/L	.	4ee\	.	4gg\	.	4A\	-ca-	4e\	-ca-	4gg\	-ca-	4ee\	.	4gg\	.	.
8AA/J	.	.	.	.	.	.	.	.	.	.	.	.	.	.	.	.
.	.	8qqee/	.	8qqgg/	.	.	.	8qqe/	.	.	.	.	.	.	.	.
4D/	.	4dd\	.	4ff#\	.	4D\	-ta	4d\	-ta	4ff#\	-ta	4dd\	.	4ff#\	.	.
!	!	!LO:LB:g=original	!	!	!	!	!	!	!	!LO:LB:g=original	!	!	!	!	!	!
=11	=11	=11	=11	=11	=11	=11	=11	=11	=11	=11	=11	=11	=11	=11	=11	=11
8D\L	.	16d/LL	.	16d/LL	.	4D\	a-	4F#/	a-	4a\	a-	4dd\	.	4ff#\	.	1ryy
.	.	(<16d/	.	(<16f#/	.	.	.	.	.	.	.	.	.	.	.	.
8D\	.	16f#/	.	16a/	.	.	.	.	.	.	.	.	.	.	.	.
.	.	16a/JJ)	.	16dd/JJ)	.	.	.	.	.	.	.	.	.	.	.	.
!	!	!LO:TX:a:t=P:problem=mixed beam	!	!	!	!	!	!	!	!	!	!	!	!	!	!
8D\	.	16dd\LL	.	16ff#\LL	.	4D\	-gnuſ	4F#/	-gnuſ	4a\	-gnus	8dd\L	.	8ff#\L	.	.
.	.	16ff#\	.	(>16aa\	.	.	.	.	.	.	.	.	.	.	.	.
8D\J	.	16dd\	.	16ff#\	.	.	.	.	.	.	.	8dd\J	.	8ff#\J	.	.
.	.	16f#/JJ	.	16dd\JJ)	.	.	.	.	.	.	.	.	.	.	.	.
!LO:TX:a:t=P:problem=mixed beam	!	!	!	!	!	!	!	!	!	!	!	!	!	!	!	!
8A\L	.	4f#/	.	4dd\	.	4A\	De-	4F#/	De-	4dd\	De-	4dd\	.	4ff#\	.	.
8AA/	.	.	.	.	.	.	.	.	.	.	.	.	.	.	.	.
.	.	8qqf#/	.	8qqdd/	.	.	.	8qqF#/	.	8qqdd/	.	.	.	8qqff#/	.	.
8AA/	.	4e/	.	4cc#\	.	4AA/	-i	4E/	-i	4cc#\	-i	4a/	.	4ee\	.	.
8AA/J	.	.	.	.	.	.	.	.	.	.	.	.	.	.	.	.
!	!	!	!	!LO:LB:g=original	!	!	!	!	!	!	!	!	!	!	!	!
=12	=12	=12	=12	=12	=12	=12	=12	=12	=12	=12	=12	=12	=12	=12	=12	=12
8AA/L	.	16c#/LL	.	16A/LL	.	4A\	a-	4G/	a-	4ee\	a-	4a/	.	4ee\	.	1ryy
.	.	(<16A/	.	(<16c#/	.	.	.	.	.	.	.	.	.	.	.	.
8AA/	.	16c#/	.	16e/	.	.	.	.	.	.	.	.	.	.	.	.
.	.	16e/JJ)	.	16g/JJ)	.	.	.	.	.	.	.	.	.	.	.	.
!	!	!	!	!	!	!	!	!	!	!	!	!LO:TX:a:t=P:problem=mixed beam	!	!	!	!
8AA/	.	(>16g\LL	.	16cc#\LL	.	4A\	-gnuſ	4G/	-gnuſ	4ee\	-gnus	8a/L	.	8ee\L	.	.
.	.	16cc#\JJ)	.	16ee\	.	.	.	.	.	.	.	.	.	.	.	.
!	!	!LO:TX:a:t=P:problem=mixed beam	!	!	!	!	!	!	!	!	!	!	!	!	!	!
8AA/J	.	(>16e/LL	.	16g\	.	.	.	.	.	.	.	8ee\J	.	8gg\J	.	.
.	.	16ee\JJ)	.	16gg\JJ	.	.	.	.	.	.	.	.	.	.	.	.
!	!	!LO:TX:a:t=t.	!	!LO:TX:a:t=t.	!	!	!	!	!	!	!	!	!	!	!	!
8AA/L	.	4ee\	.	4gg\	.	4A\	De-	4G/	De-	4ee\	De-	4ee\	.	4gg\	.	.
8AA/	.	.	.	.	.	.	.	.	.	.	.	.	.	.	.	.
.	.	8qqee/	.	8qqgg/	.	.	.	8qqG/	.	8qqee/	.	8qqee/	.	8qqgg/	.	.
8D/	.	4dd\	.	4ff#\	.	4AA/	-i	4F#/	-i	4dd\	-i	4dd\	.	4ff#\	.	.
8D/J	.	.	.	.	.	.	.	.	.	.	.	.	.	.	.	.
!	!	!	!	!	!	!LO:LB:g=original	!	!LO:LB:g=original	!	!	!	!	!	!	!	!
=13	=13	=13	=13	=13	=13	=13	=13	=13	=13	=13	=13	=13	=13	=13	=13	=13
8D\L	.	(>16a\LL	.	16dd\LL	.	4D\	qui	4F#/	qui	4dd\	qui	4ff#\	.	4aa\	.	1ryy
.	.	16dd\	.	16ff#\	.	.	.	.	.	.	.	.	.	.	.	.
8D\	.	16ff#\)	.	16aa\	.	.	.	.	.	.	.	.	.	.	.	.
.	.	16aa\JJ	.	16ddd\JJ	.	.	.	.	.	.	.	.	.	.	.	.
8D\	.	(>16ff#\LL	.	16aa\LL	.	4D\	tol-	(<8F#/L	tol-	8a\L	tol-	8r	.	8r	.	.
.	.	16dd\)	.	16ff#\	.	.	.	.	.	.	.	.	.	.	.	.
8D\J	.	(>16a\	.	16dd\	.	.	.	8A/J)	.	8ccn\J	.	8ff#\	.	8aa\	.	.
.	.	16aa\JJ)	.	16cccn\JJ	.	.	.	.	.	.	.	.	.	.	.	.
8D\L	.	4aa\	.	4ccc\	.	4D\	-liſ	4A/	-liſ	4cc\	-liſ	4ff#\	.	(>4aa\	.	.
8D\	.	.	.	.	.	.	.	.	.	.	.	.	.	.	.	.
8D\	.	16.gg\LL	.	16bb\LL	.	4D\	pec-	4G/	pec-	4b\	pec-	8gg\L	.	8bb\L)	.	.
.	.	.	.	16dd\	.	.	.	.	.	.	.	.	.	.	.	.
.	.	32dd\K	.	.	.	.	.	.	.	.	.	.	.	.	.	.
8D\J	.	16gg\	.	16bb\	.	.	.	.	.	.	.	8gg\J	.	8bb\J	.	.
.	.	16gg\JJ	.	16bb\JJ	.	.	.	.	.	.	.	.	.	.	.	.
=14	=14	=14	=14	=14	=14	=14	=14	=14	=14	=14	=14	=14	=14	=14	=14	=14
8D\L	.	4gg\	.	4bb\	.	4d\	-ca-	4G/	-ca-	4b\	-ca-	(>4gg\	.	(>4bb\	.	1ryy
8D\	.	.	.	.	.	.	.	.	.	.	.	.	.	.	.	.
8D\	.	16.ff#\LL	.	16aa\LL	.	4D\	-ta	4F#/	-ta	4a\	-ta	8ff#\L)	.	8aa\L)	.	.
.	.	.	.	16dd\	.	.	.	.	.	.	.	.	.	.	.	.
.	.	32dd\K	.	.	.	.	.	.	.	.	.	.	.	.	.	.
8D\J	.	16ff#\	.	16aa\	.	.	.	.	.	.	.	8ff#\J	.	8aa\J	.	.
!	!	!LO:TX:t=P:problem=w źródle pomiędzy 16ff# a 4ff# dodatkowa kreska taktowa	!	!	!	!	!	!	!	!	!	!	!	!	!	!
.	.	16ff#\JJ	.	16aa\JJ	.	.	.	.	.	.	.	.	.	.	.	.
8AA/L	.	4ff#\	p	(>4aa\	.	4A\	mun-	4F#/	mun-	4a\	mun-	(>4ff#\	.	4aa\	.	.
8AA/	.	.	.	.	.	.	.	.	.	.	.	.	.	.	.	.
8AA/	.	16.ee\LL	.	16gg\LL)	.	8AA/	-di	8E/	-di	8g\	-di	8ee\L)	.	(>8gg\L	.	.
.	.	.	.	16g\	.	.	.	.	.	.	.	.	.	.	.	.
.	.	32a\K	.	.	.	.	.	.	.	.	.	.	.	.	.	.
8AA/J	.	16ee\	.	16gg\	.	8AA/	pec-	8e\	pec-	8g\	pec-	8ee\J	.	8gg\J)	.	.
.	.	16ee\JJ	.	16gg\JJ	.	.	.	.	.	.	.	.	.	.	.	.
=15	=15	=15	=15	=15	=15	=15	=15	=15	=15	=15	=15	=15	=15	=15	=15	=15
8AA/L	.	4ee\	.	4gg\	.	4AA/	-ca-	4e\	-ca-	4g\	-ca-	4ee\	.	(>4gg\	.	1ryy
8AA/	.	.	.	.	.	.	.	.	.	.	.	.	.	.	.	.
!	!	!	!	!	!	!	!	!LO:TX:a:t=P:problem=mixed beam	!	!	!	!	!	!	!	!
8D/	.	8dd\L	.	16ff#\LL	.	8D\L	-ta	8d\L	-ta	8f#\L	-ta	8dd\L	.	8ff#\L)	.	.
.	.	.	.	16aa\	.	.	.	.	.	.	.	.	.	.	.	.
8G#X/J	.	(>16ff#\L	.	16ddd\	.	8G#X\J	.	8F#/J	.	8dd\J	.	8dd\J	.	8ff#\J	.	.
.	.	16dd\JJ)	.	16ff#\JJ	.	.	.	.	.	.	.	.	.	.	.	.
!LO:TX:a:t=P:problem=mixed beam	!	!LO:TX:a:t=t.	!	!LO:TX:a:t=t.	!	!	!	!	!	!	!	!	!	!LO:TX:a:t=t.	!	!
8A\L	.	4dd\	.	4ff#\	.	4A\	mun-	4F#t/	mun-	4dd\	mun-	4ddT\	.	4ff#\	.	.
8AA/J	.	.	.	.	.	.	.	.	.	.	.	.	.	.	.	.
.	.	.	.	.	.	.	.	.	.	8qqdd/	.	.	.	.	.	.
4AA/	.	4cc#\	.	4ee\	.	4AA/	-di	4E/	-di	4cc#X\	-di	4a/	.	4ee\	.	.
!LO:LB:g=original	!	!	!	!	!	!	!	!	!	!	!	!	!	!	!	!
=16	=16	=16	=16	=16	=16	=16	=16	=16	=16	=16	=16	=16	=16	=16	=16	=16
!	!	!	!	!LO:N:vis=16.	!	!	!	!	!	!	!	!	!	!	!	!
8AA/L	.	(<16e/LL	.	16g/LL	.	4A\	mi-	4G/	mi-	4ee\	mi-	4a/	.	4ee\	.	1ryy
.	.	16g/J)	.	16dd/J	.	.	.	.	.	.	.	.	.	.	.	.
!	!	!LO:SIC:o=16e	!	!	!	!	!	!	!	!	!	!	!	!	!	!
8AA/	.	8e/J	.	8g/J	.	.	.	.	.	.	.	.	.	.	.	.
8AA/	.	(<16e/LL	.	(<16g/LL	.	4A\	-se-	(<16G/LL	-se-	(>16ee\LL	-se-	(>16ee\LL	.	(>16gg\LL	.	.
.	.	16d/)	.	16f#/)	.	.	.	16F#/)	.	16dd\)	.	16dd\)	.	16ff#\)	.	.
8AA/J	.	(<16d/	.	(<16f#/	.	.	.	(<16F#/	.	(>16dd\	.	(>16dd\	.	(>16ff#\	.	.
.	.	16c#/JJ)	.	16e/JJ)	.	.	.	16E/JJ)	.	16cc#\JJ)	.	16a\JJ)	.	16ee\JJ)	.	.
!	!	!LO:LB:g=original	!	!	!	!	!	!	!	!LO:LB:g=original	!	!	!	!	!	!
8AA/L	.	16e/LL	.	16g/LL	.	4A\	-re-	4G/	-re-	4ee\	-re-	4a/	.	4ee\	.	.
.	.	16g/J	.	16ee/J	.	.	.	.	.	.	.	.	.	.	.	.
8AA/	.	8e/J	.	8g/J	.	.	.	.	.	.	.	.	.	.	.	.
8AA/	.	(<16e/LL	.	(<16g/LL	.	4A\	-re	(<16G/LL	.	(>16ee\LL	.	(>16ee\LL	.	(>16gg\LL	.	.
.	.	16d/)	.	16f#/)	.	.	.	16F#/JJ)	.	16dd\JJ)	.	16dd\)	.	16ff#\)	.	.
8AA/J	.	(<16d/	.	(<16f#/	.	.	.	(<16F#/LL	.	(>16dd\LL	.	(>16dd\	.	(>16ff#\	.	.
.	.	16c#/JJ)	.	16e/JJ)	.	.	.	16E/JJ)	-re	16cc#\JJ)	-re	16a\JJ)	.	16ee\JJ)	.	.
=17	=17	=17	=17	=17	=17	=17	=17	=17	=17	=17	=17	=17	=17	=17	=17	=17
!	!	!	!	!	!	!	!	!	!	!	!	!	!	!LO:SIC:o=8ee	!	!
8D\L	.	16f#/LL	.	16f#/LL	.	8D\L	no-	8F#/L	no-	8.dd\L	no-	4dd\	.	4ff#\	.	1ryy
.	.	16a/J	.	16a/JJ	.	.	.	.	.	.	.	.	.	.	.	.
16F#\L	.	8b/J	.	16dd\LL	.	16F#\L	.	16A/L	.	.	.	.	.	.	.	.
16G\JJ	.	.	.	16ee\JJ	.	16G\JJ	.	16B/JJ	.	16ee\Jk	.	.	.	.	.	.
!LO:TX:a:t=P:problem=mixed beam	!	!LO:TX:a:t=t.	!	!LO:TX:a:t=t.	!	!LO:TX:a:t=P:problem=mixed beam	!	!	!	!	!	!	!	!LO:SIC:o=16dd	!	!
8A\L	.	4cc#\	.	4ee\	.	8A\L	.	4c#t\	.	4eeT\	.	8a/L	.	8ee\L	.	.
!	!	!	!	!	!	!	!	!	!	!	!	!	!	!LO:SIC:o=16dd	!	!
8AA/J	.	.	.	.	.	8AA/J	.	.	.	.	.	8a/J	.	8ee\J	.	.
!LO:TX:a:t=P:problem=mixed beam	!	!LO:TX:a:t=P:problem=mixed beam	!	!	!	!	!	!	!	!	!	!	!	!	!	!
.	.	.	.	.	.	.	.	8qqc#/	.	.	.	.	.	.	.	.
8D\L	.	16dd\LL	.	16dd\LL	.	4D\	-biſ	4d\	-biſ	4dd\	-biſ	4f#/	.	4dd\	.	.
.	.	32f#/L	.	32dd\L	.	.	.	.	.	.	.	.	.	.	.	.
.	.	32e/JJJ	.	32cc#\JJJ	.	.	.	.	.	.	.	.	.	.	.	.
8D\	.	32f#/LLL	.	32dd\LLL	.	.	.	.	.	.	.	.	.	.	.	.
.	.	32f#/	.	32a\	.	.	.	.	.	.	.	.	.	.	.	.
.	.	32e/	.	32g\	.	.	.	.	.	.	.	.	.	.	.	.
.	.	32d/JJJ	.	32f#\JJJ	.	.	.	.	.	.	.	.	.	.	.	.
.	.	8qqf#/	.	8qqa/	.	.	.	.	.	.	.	.	.	.	.	.
8A\	.	8e/L	.	8g/L	.	4r	.	4r	.	4r	.	8r	.	8r	.	.
8AA/J	.	16d/L	.	16f#/L	.	.	.	.	.	.	.	8a/	.	8ee\	.	.
.	.	16c#/JJ	.	16e/JJ	.	.	.	.	.	.	.	.	.	.	.	.
!	!	!	!	!LO:LB:g=original	!	!	!	!LO:PB:g=original	!	!	!	!	!	!LO:LB:g=original	!	!
=18	=18	=18	=18	=18	=18	=18	=18	=18	=18	=18	=18	=18	=18	=18	=18	=18
!LO:TX:a:t=P:problem=mixed beam	!	!	!	!	!	!LO:TX:t=P:problem=w źródle "Agnuſ Tacet" zapisane na pięciolinii, za taktem 18	!	!LO:TX:t=P:problem=w źródle brak tego pustego taktu	!	!	!	!	!LO:DY:a	!	!	!
!	!	!	!	!	!	!LO:TX:a:t=Agnuſ \nTacet	!	!	!	!	!	!	!LO:DY:t=p&colon;	!	!	!
8D\L	.	16d/LL	.	16f#\LL	.	1r	.	1ryy	.	1r	.	4dd\	p	4ff#\	.	1ryy
.	.	32f#/L	.	(>32dd\L	.	.	.	.	.	.	.	.	.	.	.	.
.	.	32e/JJJ	.	32cc#\JJJ)	.	.	.	.	.	.	.	.	.	.	.	.
8D\	.	32f#/LLL|	.	32dd\LLL	.	.	.	.	.	.	.	.	.	.	.	.
.	.	32f#/	.	32a\	.	.	.	.	.	.	.	.	.	.	.	.
.	.	(<32e/	.	32g\	.	.	.	.	.	.	.	.	.	.	.	.
.	.	32d/JJJ)	.	32f#\JJJ	.	.	.	.	.	.	.	.	.	.	.	.
.	.	16qqf#/	.	8qqa/	.	.	.	.	.	.	.	.	.	.	.	.
!	!LO:DY:a	!	!	!	!	!	!	!	!	!	!	!	!	!	!	!
!	!LO:DY:t=pia	!	!	!	!	!	!	!	!	!	!	!	!	!	!	!
8A\	p	8e/L	.	8g/L	.	.	.	.	.	.	.	8r	.	8r	.	.
!	!	!	!	!	!	!	!	!	!	!	!	!	!	!	!LO:DY:a	!
!	!	!	!	!	!	!	!	!	!	!	!	!	!	!	!LO:DY:t=pia	!
8AA/J	.	16d/L	.	16f#/L	.	.	.	.	.	.	.	8a/	.	8ee\	p	.
.	.	16c#/JJ	.	16e/JJ	.	.	.	.	.	.	.	.	.	.	.	.
.	.	8qqc#/	.	.	.	.	.	.	.	.	.	.	.	.	.	.
4D\	.	4d/	.	4f#;/	.	.	.	.	.	.	.	4dd\	.	4ff#\	.	.
4r	.	4r	.	4r	.	.	.	.	.	.	.	4r	.	4r	.	.
!	!	!LO:LB:g=original	!	!	!	!	!	!	!	!	!	!LO:LB:g=original	!	!	!	!
=19||	=19||	=19||	=19||	=19||	=19||	=19||	=19||	=19||	=19||	=19||	=19||	=19||	=19||	=19||	=19||	=19||
*k[f#c#]	*	*k[f#c#]	*	*k[f#c#]	*	*k[f#c#]	*	*k[f#c#]	*	*k[f#c#]	*	*k[f#c#]	*	*k[f#c#]	*	*k[f#c#]
*M6/8	*	*M6/8	*	*M6/8	*	*M6/8	*	*M6/8	*	*M6/8	*	*M6/8	*	*M6/8	*	*M6/8
*clefF4	*	*	*	*clefG2	*	*	*	*	*	*	*	*	*	*	*	*
!LO:TX:b:t=Agnus	!	!	!	!	!	!	!	!	!	!	!	!	!	!	!	!
!	!	!LO:TX:b:t=Agnus	!	!LO:TX:b:t=Agnus	!	!	!	!	!	!	!	!	!	!LO:TX:t=P:problem=w źródle "Agnus Solo Tacet" zapisane na pięciolinii, za taktem 18	!	!
!	!	!	!	!	!	!	!	!	!	!LO:TX:t=P:problem=w źródle "Agnus Solo Tacet" zapisane na pięciolinii, za taktem 18	!	!	!	!	!	!
!LO:TX:a:t=All(egr)o	!	!LO:TX:a:t=all(egr)o.	!	!LO:TX:a:t=All(egr)o	!	!LO:TX:a:t=Agnus Tacet	!	!LO:TX:a:t=All(egr)o. Solo	!	!LO:TX:a:t=Agnus Solo \nTacet	!	!	!	!LO:TX:a:t=Agnus Solo Tacet	!	!
!	!	!	!	!	!	!	!	!LO:N:vis=00	!	!	!	!	!	!	!	!
8BB/L	.	4.dd\	.	4.ff#\	.	2.ryy	.	0.r	.	2.ryy	.	2.ryy	.	2.ryy	.	2.ryy
8BB/	.	.	.	.	.	.	.	.	.	.	.	.	.	.	.	.
8BB/J	.	.	.	.	.	.	.	.	.	.	.	.	.	.	.	.
8BB/L	.	4.ff#\	.	4.gg\	.	.	.	.	.	.	.	.	.	.	.	.
8BB/	.	.	.	.	.	.	.	.	.	.	.	.	.	.	.	.
8BB/J	.	.	.	.	.	.	.	.	.	.	.	.	.	.	.	.
=20	=20	=20	=20	=20	=20	=20	=20	=20	=20	=20	=20	=20	=20	=20	=20	=20
4BB/	.	(>8dd\L	.	8ff#\L	.	2.ryy	.	.	.	2.ryy	.	2.ryy	.	2.ryy	.	2.ryy
.	.	8cc#\)	.	(>8ee\	.	.	.	.	.	.	.	.	.	.	.	.
8r	.	8b\J	.	8dd\J)	.	.	.	.	.	.	.	.	.	.	.	.
4F#\	.	(>8cc#\L	.	8ee\L	.	.	.	.	.	.	.	.	.	.	.	.
.	.	8b\)	.	(>8dd\	.	.	.	.	.	.	.	.	.	.	.	.
8r	.	8a#X\J	.	8cc#\J)	.	.	.	.	.	.	.	.	.	.	.	.
=21	=21	=21	=21	=21	=21	=21	=21	=21	=21	=21	=21	=21	=21	=21	=21	=21
8BB/L	.	4.f#/	.	4.dd\	.	2.ryy	.	.	.	2.ryy	.	2.ryy	.	2.ryy	.	2.ryy
8BB/	.	.	.	.	.	.	.	.	.	.	.	.	.	.	.	.
8BB/J	.	.	.	.	.	.	.	.	.	.	.	.	.	.	.	.
8BB/L	.	4.g/	.	4.ee\	.	.	.	.	.	.	.	.	.	.	.	.
8BB/	.	.	.	.	.	.	.	.	.	.	.	.	.	.	.	.
8BB/J	.	.	.	.	.	.	.	.	.	.	.	.	.	.	.	.
=22	=22	=22	=22	=22	=22	=22	=22	=22	=22	=22	=22	=22	=22	=22	=22	=22
4BB/	.	(<8f#/L	.	8dd\L	.	2.ryy	.	.	.	2.ryy	.	2.ryy	.	2.ryy	.	2.ryy
.	.	8e/)	.	(>8cc#\	.	.	.	.	.	.	.	.	.	.	.	.
8r	.	8d/J	.	8b\J)	.	.	.	.	.	.	.	.	.	.	.	.
4F#\	.	(<8e/L	.	8cc#\L	.	.	.	.	.	.	.	.	.	.	.	.
.	.	8d/)	.	(>8b\	.	.	.	.	.	.	.	.	.	.	.	.
8r	.	8c#/J	.	8a#X\J)	.	.	.	.	.	.	.	.	.	.	.	.
=23	=23	=23	=23	=23	=23	=23	=23	=23	=23	=23	=23	=23	=23	=23	=23	=23
!	!	!	!	!	!	!	!	!LO:N:vis=00	!	!	!	!	!	!	!	!
8B\L	.	8d/L	.	8b/L	.	2.ryy	.	0.r	.	2.ryy	.	2.ryy	.	2.ryy	.	2.ryy
16F#\L	.	16f#/L	.	16f#/L	.	.	.	.	.	.	.	.	.	.	.	.
16E\	.	16e/	.	16e/	.	.	.	.	.	.	.	.	.	.	.	.
16D\	.	16d/	.	16d/	.	.	.	.	.	.	.	.	.	.	.	.
16C#\JJ	.	16c#/JJ	.	16c#/JJ	.	.	.	.	.	.	.	.	.	.	.	.
8BB/L	.	4B/	.	4B/	.	.	.	.	.	.	.	.	.	.	.	.
8D/	.	.	.	.	.	.	.	.	.	.	.	.	.	.	.	.
8BB/J	.	8r	.	8r	.	.	.	.	.	.	.	.	.	.	.	.
=24	=24	=24	=24	=24	=24	=24	=24	=24	=24	=24	=24	=24	=24	=24	=24	=24
!	!LO:DY:a	!	!	!	!	!	!	!	!	!	!	!	!	!	!	!
!	!LO:DY:t=pia	!	!	!	!	!	!	!	!	!	!	!	!	!	!	!
4F#\	p	8c#/L|	.	8f#/L|	.	2.ryy	.	.	.	2.ryy	.	2.ryy	.	2.ryy	.	2.ryy
.	.	8f#/|	.	8a#X/|	.	.	.	.	.	.	.	.	.	.	.	.
8r	.	8a#X/J|	.	8cc#/J|	.	.	.	.	.	.	.	.	.	.	.	.
4F#\	.	8c#/L|	.	8f#/L|	.	.	.	.	.	.	.	.	.	.	.	.
.	.	8f#/|	.	8a#X/|	.	.	.	.	.	.	.	.	.	.	.	.
8r	.	8a#X/J|	.	8cc#/J|	.	.	.	.	.	.	.	.	.	.	.	.
=25	=25	=25	=25	=25	=25	=25	=25	=25	=25	=25	=25	=25	=25	=25	=25	=25
!LO:TX:a:t=P:problem=mixed beam	!	!	!	!	!	!	!	!	!	!	!	!	!	!	!	!
8F#\L	.	8cc#\L	.	8ee\L	.	2.ryy	.	.	.	2.ryy	.	2.ryy	.	2.ryy	.	2.ryy
8AA#X/	.	(>8cc#\	.	(>8ee\	.	.	.	.	.	.	.	.	.	.	.	.
8BB/J	.	8b\J)	.	8dd\J)	.	.	.	.	.	.	.	.	.	.	.	.
!LO:TX:a:t=P:problem=mixed beam	!	!	!	!	!	!	!	!	!	!	!	!	!	!	!	!
.	.	8qqb/	.	8qqdd/	.	.	.	.	.	.	.	.	.	.	.	.
8F#\L	.	4.a#X/	.	4.cc#\	.	.	.	.	.	.	.	.	.	.	.	.
8C#\	.	.	.	.	.	.	.	.	.	.	.	.	.	.	.	.
8FF#/J	.	.	.	.	.	.	.	.	.	.	.	.	.	.	.	.
!	!	!	!	!LO:LB:g=original	!	!	!	!	!	!	!	!	!	!	!	!
=26	=26	=26	=26	=26	=26	=26	=26	=26	=26	=26	=26	=26	=26	=26	=26	=26
!LO:TX:t=P:problem=w źródle takty 26-27 zapisane jako repetycja taktów 24-25	!LO:DY:a	!	!	!	!	!	!	!	!	!	!	!	!	!	!	!
!	!LO:DY:t=pia	!	!	!	!	!	!	!	!	!	!	!	!	!	!	!
4F#\	p	8c#/L|	.	8f#/L|	.	2.ryy	.	.	.	2.ryy	.	2.ryy	.	2.ryy	.	2.ryy
.	.	8f#/|	.	8a#X/|	.	.	.	.	.	.	.	.	.	.	.	.
8r	.	8a#X/J|	.	8cc#/J|	.	.	.	.	.	.	.	.	.	.	.	.
4F#\	.	8c#/L|	.	8f#/L|	.	.	.	.	.	.	.	.	.	.	.	.
.	.	8f#/|	.	8a#X/|	.	.	.	.	.	.	.	.	.	.	.	.
8r	.	8a#X/J|	.	8cc#/J|	.	.	.	.	.	.	.	.	.	.	.	.
!	!	!LO:LB:g=original	!	!	!	!	!	!	!	!	!	!	!	!	!	!
=27	=27	=27	=27	=27	=27	=27	=27	=27	=27	=27	=27	=27	=27	=27	=27	=27
!LO:TX:a:t=P:problem=mixed beam	!	!	!	!	!	!	!	!	!	!	!	!	!	!	!	!
!	!	!	!	!	!	!	!	!LO:N:vis=00	!	!	!	!	!	!	!	!
8F#\L	.	8cc#\L	.	8ee\L|	.	2.ryy	.	0.r	.	2.ryy	.	2.ryy	.	2.ryy	.	2.ryy
8AA#X/	.	(>8cc#\	.	(>8ee\	.	.	.	.	.	.	.	.	.	.	.	.
8BB/J	.	8b\J)	.	8dd\J)	.	.	.	.	.	.	.	.	.	.	.	.
!LO:TX:a:t=P:problem=mixed beam	!	!	!	!	!	!	!	!	!	!	!	!	!	!	!	!
.	.	8qqb/	.	8qqdd/	.	.	.	.	.	.	.	.	.	.	.	.
8F#\L	.	4.a#X/	.	4cc#\	.	.	.	.	.	.	.	.	.	.	.	.
8C#\	.	.	.	.	.	.	.	.	.	.	.	.	.	.	.	.
8FF#/J	.	.	.	8r	.	.	.	.	.	.	.	.	.	.	.	.
=28	=28	=28	=28	=28	=28	=28	=28	=28	=28	=28	=28	=28	=28	=28	=28	=28
!LO:TX:a:t=P:problem=mixed beam	!	!	!	!	!	!	!	!	!	!	!	!	!	!	!	!
!	!LO:DY:a	!	!	!	!LO:DY:a	!	!	!	!	!	!	!	!	!	!	!
!	!LO:DY:t=for	!	!	!	!LO:DY:t=for	!	!	!	!	!	!	!	!	!	!	!
8BB/L	f	8dd\L	.	8bb\L	f	2.ryy	.	.	.	2.ryy	.	2.ryy	.	2.ryy	.	2.ryy
8B\	.	8b\	.	8dd\	.	.	.	.	.	.	.	.	.	.	.	.
8An\J	.	8b\J	.	8dd\J	.	.	.	.	.	.	.	.	.	.	.	.
8G\L	.	8dd\L	.	8bb\L	.	.	.	.	.	.	.	.	.	.	.	.
16F#\L	.	8b\	.	8dd\	.	.	.	.	.	.	.	.	.	.	.	.
16E\	.	.	.	.	.	.	.	.	.	.	.	.	.	.	.	.
16D\	.	8b\J	.	8dd\J	.	.	.	.	.	.	.	.	.	.	.	.
16BB\JJ	.	.	.	.	.	.	.	.	.	.	.	.	.	.	.	.
=29	=29	=29	=29	=29	=29	=29	=29	=29	=29	=29	=29	=29	=29	=29	=29	=29
8D\L	.	8dd\L	.	8bb\L	.	2.ryy	.	.	.	2.ryy	.	2.ryy	.	2.ryy	.	2.ryy
8E\	.	8b\	.	8dd\	.	.	.	.	.	.	.	.	.	.	.	.
8F#\J	.	8a#X\J	.	8cc#\J	.	.	.	.	.	.	.	.	.	.	.	.
!LO:TX:a:t=P:problem=mixed beam	!	!	!	!	!	!	!	!	!	!	!	!	!	!	!	!
.	.	8qqa#/	.	8qqcc#/	.	.	.	.	.	.	.	.	.	.	.	.
8B\L	.	4.b\	.	4b\	.	.	.	.	.	.	.	.	.	.	.	.
8F#\	.	.	.	.	.	.	.	.	.	.	.	.	.	.	.	.
8BB/J	.	.	.	8r	.	.	.	.	.	.	.	.	.	.	.	.
=30	=30	=30	=30	=30	=30	=30	=30	=30	=30	=30	=30	=30	=30	=30	=30	=30
!LO:TX:a:t=P:problem=mixed beam	!LO:DY:a	!	!	!	!LO:DY:a	!	!	!	!	!	!	!	!	!	!	!
!	!LO:DY:t=pia	!	!	!	!LO:DY:t=pia	!	!	!	!	!	!	!	!	!	!	!
8BB/L	p	8dd\L	.	8bb\L	p	2.ryy	.	.	.	2.ryy	.	2.ryy	.	2.ryy	.	2.ryy
8B\	.	8b\	.	8dd\	.	.	.	.	.	.	.	.	.	.	.	.
8A\J	.	8b\J	.	8dd\J	.	.	.	.	.	.	.	.	.	.	.	.
8G\L	.	8dd\L	.	8bb\L	.	.	.	.	.	.	.	.	.	.	.	.
16F#\L	.	8b\	.	8dd\	.	.	.	.	.	.	.	.	.	.	.	.
16E\	.	.	.	.	.	.	.	.	.	.	.	.	.	.	.	.
16D\	.	8b\J	.	8dd\J	.	.	.	.	.	.	.	.	.	.	.	.
16BB\JJ	.	.	.	.	.	.	.	.	.	.	.	.	.	.	.	.
=31	=31	=31	=31	=31	=31	=31	=31	=31	=31	=31	=31	=31	=31	=31	=31	=31
!	!LO:DY:a	!	!	!	!	!	!	!	!	!	!	!	!	!	!	!
!	!LO:DY:t=for	!	!	!	!	!	!	!	!	!	!	!	!	!	!	!
8D\L	f	8dd\L	.	8bb\L	.	2.ryy	.	2.r	.	2.ryy	.	2.ryy	.	2.ryy	.	2.ryy
8E\	.	8b\	.	8dd\	.	.	.	.	.	.	.	.	.	.	.	.
8F#\J	.	8a#X\J	.	8cc#\J	.	.	.	.	.	.	.	.	.	.	.	.
!	!	!	!LO:DY:a	!	!LO:DY:a	!	!	!	!	!	!	!	!	!	!	!
!	!	!	!LO:DY:t=for	!	!LO:DY:t=for	!	!	!	!	!	!	!	!	!	!	!
4BB;/	.	8b/L	f	8b/L	f	.	.	.	.	.	.	.	.	.	.	.
.	.	8f#/	.	8f#/	.	.	.	.	.	.	.	.	.	.	.	.
8r	.	8B/J	.	8B;</J	.	.	.	.	.	.	.	.	.	.	.	.
=32	=32	=32	=32	=32	=32	=32	=32	=32	=32	=32	=32	=32	=32	=32	=32	=32
!	!LO:DY:a	!	!LO:DY:a	!	!LO:DY:a	!	!	!	!	!	!	!	!	!	!	!
!	!LO:DY:t=pia	!LO:DY:t=pia	!LO:DY:t=pia	!	!LO:DY:t=pia	!	!	!	!	!	!	!	!	!	!	!
8BB/L	p	4.dd\	p	4.ff#\	p	2.ryy	.	4.f#\	A-	2.ryy	.	2.ryy	.	2.ryy	.	2.ryy
8BB/	.	.	.	.	.	.	.	.	.	.	.	.	.	.	.	.
8BB/J	.	.	.	.	.	.	.	.	.	.	.	.	.	.	.	.
8BB/L	.	4.ee\	.	4.gg\	.	.	.	4.g\	-gnuſ	.	.	.	.	.	.	.
8BB/	.	.	.	.	.	.	.	.	.	.	.	.	.	.	.	.
8BB/J	.	.	.	.	.	.	.	.	.	.	.	.	.	.	.	.
=33	=33	=33	=33	=33	=33	=33	=33	=33	=33	=33	=33	=33	=33	=33	=33	=33
4BB/	.	8dd\L	.	8ff#\L|	.	2.ryy	.	8f#\	De-	2.ryy	.	2.ryy	.	2.ryy	.	2.ryy
.	.	(>8cc#\	.	(>8ee\	.	.	.	8e\	-i	.	.	.	.	.	.	.
8r	.	8b\J)	.	8dd\J)	.	.	.	8d\	qui	.	.	.	.	.	.	.
!	!LO:DY:a	!	!	!	!	!	!	!	!	!	!	!	!	!	!	!
!	!LO:DY:t=for	!	!	!	!	!	!	!	!	!	!	!	!	!	!	!
4F#\	f	8cc#\L	.	8ee\L|	.	.	.	8e\	tol-	.	.	.	.	.	.	.
.	.	(>8b\	.	(>8dd\	.	.	.	8d\	-liſ	.	.	.	.	.	.	.
8r	.	8a#X\J)	.	8cc#\J)	.	.	.	8c#\	pec-	.	.	.	.	.	.	.
=34	=34	=34	=34	=34	=34	=34	=34	=34	=34	=34	=34	=34	=34	=34	=34	=34
8BB/L	.	4.f#/	.	4.dd\	.	2.ryy	.	4.d\	-ca-	2.ryy	.	2.ryy	.	2.ryy	.	2.ryy
8BB/	.	.	.	.	.	.	.	.	.	.	.	.	.	.	.	.
8BB/J	.	.	.	.	.	.	.	.	.	.	.	.	.	.	.	.
8BB/L	.	4.g/	.	4.ee\	.	.	.	4.e\	-ta	.	.	.	.	.	.	.
8BB/	.	.	.	.	.	.	.	.	.	.	.	.	.	.	.	.
8BB/J	.	.	.	.	.	.	.	.	.	.	.	.	.	.	.	.
=35	=35	=35	=35	=35	=35	=35	=35	=35	=35	=35	=35	=35	=35	=35	=35	=35
4BB/	.	8f#/L	.	8dd\L	.	2.ryy	.	(>8d\L	mun-	2.ryy	.	2.ryy	.	2.ryy	.	2.ryy
.	.	(<8e/	.	(>8cc#\	.	.	.	8c#\	.	.	.	.	.	.	.	.
8r	.	8d/J)	.	8b\J)	.	.	.	8B\J)	.	.	.	.	.	.	.	.
4F#\	.	8e/L	.	8cc#\L	.	.	.	(>8c#\L	.	.	.	.	.	.	.	.
.	.	(<8d/	.	(>8b\	.	.	.	8B\	.	.	.	.	.	.	.	.
!	!	!	!	!LO:SIC:s=8a#	!	!	!	!	!	!	!	!	!	!	!	!
8r	.	8c#/J)	.	8a\J)	.	.	.	8A#X\J)	.	.	.	.	.	.	.	.
!	!	!LO:LB:g=original	!	!	!	!	!	!	!	!	!	!	!	!	!	!
=36	=36	=36	=36	=36	=36	=36	=36	=36	=36	=36	=36	=36	=36	=36	=36	=36
!	!	!	!	!	!	!	!	!LO:SIC:s=q8A#	!	!	!	!	!	!	!	!
.	.	.	.	.	.	.	.	8qqA/	.	.	.	.	.	.	.	.
8B\L	.	8d/L	.	8b/L	.	2.ryy	.	4.B\	-di	2.ryy	.	2.ryy	.	2.ryy	.	2.ryy
16F#\L	.	16f#/L	.	16f#/L	.	.	.	.	.	.	.	.	.	.	.	.
16E\	.	16e/	.	16e/	.	.	.	.	.	.	.	.	.	.	.	.
16D\	.	16d/	.	16d/	.	.	.	.	.	.	.	.	.	.	.	.
16C#\JJ	.	16c#/JJ	.	16c#/JJ	.	.	.	.	.	.	.	.	.	.	.	.
8BB/L	.	4B/	.	4B/	.	.	.	4r	.	.	.	.	.	.	.	.
8D/	.	.	.	.	.	.	.	.	.	.	.	.	.	.	.	.
8BB/J	.	8r	.	8r	.	.	.	8r	.	.	.	.	.	.	.	.
!LO:LB:g=original	!	!	!	!LO:LB:g=original	!	!	!	!	!	!	!	!	!	!	!	!
=37	=37	=37	=37	=37	=37	=37	=37	=37	=37	=37	=37	=37	=37	=37	=37	=37
4F#\	.	8c#/L|	.	8f#/L|	.	2.ryy	.	4A#X\	mi-	2.ryy	.	2.ryy	.	2.ryy	.	2.ryy
.	.	8f#/|	.	8a#X/|	.	.	.	.	.	.	.	.	.	.	.	.
8r	.	8a#X/J|	.	8cc#/J|	.	.	.	8c#\	-se-	.	.	.	.	.	.	.
4F#\	.	8c#/L|	.	8f#/L|	.	.	.	4A#\	-re-	.	.	.	.	.	.	.
.	.	8f#/|	.	8a#X/|	.	.	.	.	.	.	.	.	.	.	.	.
8r	.	8a#X/J|	.	8cc#/J|	.	.	.	8c#\	-re	.	.	.	.	.	.	.
=38	=38	=38	=38	=38	=38	=38	=38	=38	=38	=38	=38	=38	=38	=38	=38	=38
!LO:TX:a:t=P:problem=mixed beam	!	!	!	!	!	!	!	!	!	!	!	!	!	!	!	!
8F#\L	.	8cc#\L	.	8ee\L	.	2.ryy	.	4e\	no-	2.ryy	.	2.ryy	.	2.ryy	.	2.ryy
8AA#X/	.	8cc#\	.	(>8ee\	.	.	.	.	.	.	.	.	.	.	.	.
8BB/J	.	8b\J	.	8dd\J)	.	.	.	8d\	.	.	.	.	.	.	.	.
!LO:TX:a:t=P:problem=mixed beam	!	!	!	!	!	!	!	!	!	!	!	!	!	!	!	!
.	.	8qqb/	.	8qqdd/	.	.	.	8qqd/	.	.	.	.	.	.	.	.
8F#\L	.	4.a#X/	.	4.cc#\	.	.	.	4.c#\	-biſ	.	.	.	.	.	.	.
8C#\	.	.	.	.	.	.	.	.	.	.	.	.	.	.	.	.
8FF#/J	.	.	.	.	.	.	.	.	.	.	.	.	.	.	.	.
!	!	!	!	!	!	!	!	!LO:LB:g=original	!	!	!	!	!	!	!	!
=39	=39	=39	=39	=39	=39	=39	=39	=39	=39	=39	=39	=39	=39	=39	=39	=39
4F#\	.	8c#/L|	.	8f#/L|	.	2.ryy	.	4A#X\	mi-	2.ryy	.	2.ryy	.	2.ryy	.	2.ryy
.	.	8f#/|	.	8a#X/|	.	.	.	.	.	.	.	.	.	.	.	.
8r	.	8a#X/J|	.	8cc#/J|	.	.	.	8c#\	-se-	.	.	.	.	.	.	.
4F#\	.	8c#/L|	.	8f#/L|	.	.	.	4A#\	-re-	.	.	.	.	.	.	.
.	.	8f#/|	.	8a#X/|	.	.	.	.	.	.	.	.	.	.	.	.
8r	.	8a#X/J|	.	8cc#/J|	.	.	.	8c#\	-re	.	.	.	.	.	.	.
=40	=40	=40	=40	=40	=40	=40	=40	=40	=40	=40	=40	=40	=40	=40	=40	=40
!LO:TX:a:t=P:problem=mixed beam	!	!	!	!	!	!	!	!	!	!	!	!	!	!	!	!
8F#\L	.	8cc#\L	.	8ee\L	.	2.ryy	.	4e\	no-	2.ryy	.	2.ryy	.	2.ryy	.	2.ryy
8AA#X/	.	(>8cc#\	.	(>8ee\	.	.	.	.	.	.	.	.	.	.	.	.
8BB/J	.	8b\J)	.	8dd\J)	.	.	.	8d\	.	.	.	.	.	.	.	.
.	.	8qqb/	.	8qqdd/	.	.	.	8qqd/	.	.	.	.	.	.	.	.
8F#\L	.	4.a#X/	.	4.cc#\	.	.	.	4.c#\	-biſ	.	.	.	.	.	.	.
16F#\L	.	.	.	.	.	.	.	.	.	.	.	.	.	.	.	.
16E\	.	.	.	.	.	.	.	.	.	.	.	.	.	.	.	.
16D\	.	.	.	.	.	.	.	.	.	.	.	.	.	.	.	.
16C#\JJ	.	.	.	.	.	.	.	.	.	.	.	.	.	.	.	.
=41	=41	=41	=41	=41	=41	=41	=41	=41	=41	=41	=41	=41	=41	=41	=41	=41
!LO:TX:a:t=P:problem=mixed beam	!	!	!	!	!	!	!	!	!	!	!	!	!	!	!	!
8BB\L	.	8dd\L	.	8ff#\L	.	2.ryy	.	4f#\	mi-	2.ryy	.	2.ryy	.	2.ryy	.	2.ryy
8B\	.	8dd\	.	8ff#\	.	.	.	.	.	.	.	.	.	.	.	.
8B\J	.	8dd\J	.	8ff#\J	.	.	.	8f#\	-se-	.	.	.	.	.	.	.
8E\L	.	8b\L	.	8gg\L	.	.	.	4g\	-re-	.	.	.	.	.	.	.
8E\	.	8b\	.	8gg\	.	.	.	.	.	.	.	.	.	.	.	.
8E\J	.	8b\J	.	8gg\J	.	.	.	8g\	-re	.	.	.	.	.	.	.
=42	=42	=42	=42	=42	=42	=42	=42	=42	=42	=42	=42	=42	=42	=42	=42	=42
8A\L	.	8cc#\L	.	8ee\L	.	2.ryy	.	4.g\	no-	2.ryy	.	2.ryy	.	2.ryy	.	2.ryy
8A\	.	8cc#\	.	8ee\	.	.	.	.	.	.	.	.	.	.	.	.
8A\J	.	8cc#\J	.	8ee\J	.	.	.	.	.	.	.	.	.	.	.	.
.	.	.	.	.	.	.	.	8qqg/	.	.	.	.	.	.	.	.
8D\L	.	8an\L	.	8ff#\L	.	.	.	4.f#\	-biſ	.	.	.	.	.	.	.
8D\	.	8a\	.	8ff#\	.	.	.	.	.	.	.	.	.	.	.	.
8D\J	.	8a\J	.	8ff#\J	.	.	.	.	.	.	.	.	.	.	.	.
=43	=43	=43	=43	=43	=43	=43	=43	=43	=43	=43	=43	=43	=43	=43	=43	=43
8D\L	.	4.f#/	.	4.a/	.	2.ryy	.	4.d\	mi-	2.ryy	.	2.ryy	.	2.ryy	.	2.ryy
8D\	.	.	.	.	.	.	.	.	.	.	.	.	.	.	.	.
8D\J	.	.	.	.	.	.	.	.	.	.	.	.	.	.	.	.
8D\L	.	4g/	.	4b/	.	.	.	4B\	-se-	.	.	.	.	.	.	.
8D\	.	.	.	.	.	.	.	.	.	.	.	.	.	.	.	.
8D\J	.	8f#/	.	8a/	.	.	.	8An\	.	.	.	.	.	.	.	.
!	!	!LO:LB:g=original	!	!	!	!	!	!	!	!	!	!	!	!	!	!
=44	=44	=44	=44	=44	=44	=44	=44	=44	=44	=44	=44	=44	=44	=44	=44	=44
.	.	8qqf#/	.	8qqa/	.	.	.	8qqA/	.	.	.	.	.	.	.	.
4AA/	.	4e/	.	4g/	.	2.ryy	.	4G/	-re-	2.ryy	.	2.ryy	.	2.ryy	.	2.ryy
8r	.	8d/	.	8f#/	.	.	.	8F#/	.	.	.	.	.	.	.	.
.	.	8qqd/	.	8qqf#/	.	.	.	8qqF#/	.	.	.	.	.	.	.	.
8A\L	.	4.e/	.	4.g/	.	.	.	4.G/	-re	.	.	.	.	.	.	.
16E\L	.	.	.	.	.	.	.	.	.	.	.	.	.	.	.	.
16D\	.	.	.	.	.	.	.	.	.	.	.	.	.	.	.	.
16C#\	.	.	.	.	.	.	.	.	.	.	.	.	.	.	.	.
16BB\JJ	.	.	.	.	.	.	.	.	.	.	.	.	.	.	.	.
=45	=45	=45	=45	=45	=45	=45	=45	=45	=45	=45	=45	=45	=45	=45	=45	=45
8AA/L	.	4.e/	.	4.g/	.	2.ryy	.	4.e\	mi-	2.ryy	.	2.ryy	.	2.ryy	.	2.ryy
8AA/	.	.	.	.	.	.	.	.	.	.	.	.	.	.	.	.
8AA/J	.	.	.	.	.	.	.	.	.	.	.	.	.	.	.	.
8AA/L	.	4f#/	.	4a/	.	.	.	4A\	-se-	.	.	.	.	.	.	.
8AA/	.	.	.	.	.	.	.	.	.	.	.	.	.	.	.	.
8AA/J	.	8e/	.	8g/	.	.	.	8G/	.	.	.	.	.	.	.	.
=46	=46	=46	=46	=46	=46	=46	=46	=46	=46	=46	=46	=46	=46	=46	=46	=46
.	.	8qqe/	.	8qqg/	.	.	.	8qqG/	.	.	.	.	.	.	.	.
4D\	.	4d/	.	4f#/	.	2.ryy	.	4F#/	-re-	2.ryy	.	2.ryy	.	2.ryy	.	2.ryy
8r	.	8c#/	.	8e/	.	.	.	8E/	.	.	.	.	.	.	.	.
.	.	8qqc#/	.	8qqe/	.	.	.	8qqE/	.	.	.	.	.	.	.	.
8d\L	.	4d/	.	4.f#/	.	.	.	4F#/	-re	.	.	.	.	.	.	.
16A\L	.	.	.	.	.	.	.	.	.	.	.	.	.	.	.	.
16G\	.	.	.	.	.	.	.	.	.	.	.	.	.	.	.	.
16F#\	.	8r	.	.	.	.	.	8r	.	.	.	.	.	.	.	.
16D\JJ	.	.	.	.	.	.	.	.	.	.	.	.	.	.	.	.
!LO:LB:g=original	!	!	!	!	!	!	!	!LO:LB:g=original	!	!	!	!	!	!	!	!
=47	=47	=47	=47	=47	=47	=47	=47	=47	=47	=47	=47	=47	=47	=47	=47	=47
4A\	.	4e/	.	4cc#\	.	2.ryy	.	4c#\	mi-	2.ryy	.	2.ryy	.	2.ryy	.	2.ryy
8G\	.	8e/	.	8cc#\	.	.	.	8c#\	-se-	.	.	.	.	.	.	.
4F#\	.	4a/	.	4dd\	.	.	.	4d\	-re-	.	.	.	.	.	.	.
8G\	.	8b/	.	8ee\	.	.	.	8e\	-re	.	.	.	.	.	.	.
!	!	!	!	!LO:LB:g=original	!	!	!	!	!	!	!	!	!	!	!	!
=48	=48	=48	=48	=48	=48	=48	=48	=48	=48	=48	=48	=48	=48	=48	=48	=48
4A\	.	4f#/	.	4dd\	.	2.ryy	.	4d\	no-	2.ryy	.	2.ryy	.	2.ryy	.	2.ryy
8AA/	.	8e/	.	8cc#\	.	.	.	8c#\	.	.	.	.	.	.	.	.
.	.	8qqe/	.	8qqcc#/	.	.	.	8qqc#/	.	.	.	.	.	.	.	.
8D\L	.	4.f#/	.	4.dd\	.	.	.	4.d\	-biſ	.	.	.	.	.	.	.
8F#\	.	.	.	.	.	.	.	.	.	.	.	.	.	.	.	.
8D\J	.	.	.	.	.	.	.	.	.	.	.	.	.	.	.	.
=49	=49	=49	=49	=49	=49	=49	=49	=49	=49	=49	=49	=49	=49	=49	=49	=49
!	!	!	!LO:DY:a	!	!LO:DY:a	!	!	!	!	!	!	!	!	!	!	!
!	!	!	!LO:DY:t=for	!	!LO:DY:t=for	!	!	!	!	!	!	!	!	!	!	!
!	!	!	!	!	!	!	!	!LO:N:vis=00	!	!	!	!	!	!	!	!
4AA/	.	8e/L|	f	8a\L|	f	2.ryy	.	0.r	.	2.ryy	.	2.ryy	.	2.ryy	.	2.ryy
.	.	8a/|	.	8cc#\|	.	.	.	.	.	.	.	.	.	.	.	.
!	!LO:DY:t=for	!	!	!	!	!	!	!	!	!	!	!	!	!	!	!
!	!LO:DY:a	!	!	!	!	!	!	!	!	!	!	!	!	!	!	!
8AA/	f	8cc#/J|	.	8ee\J|	.	.	.	.	.	.	.	.	.	.	.	.
4AA/	.	8e/L|	.	8a\L|	.	.	.	.	.	.	.	.	.	.	.	.
.	.	8a/|	.	8cc#\|	.	.	.	.	.	.	.	.	.	.	.	.
8r	.	8cc#/J|	.	8ee\J|	.	.	.	.	.	.	.	.	.	.	.	.
=50	=50	=50	=50	=50	=50	=50	=50	=50	=50	=50	=50	=50	=50	=50	=50	=50
8A\L	.	8ee\L	.	8gg\L	.	2.ryy	.	.	.	2.ryy	.	2.ryy	.	2.ryy	.	2.ryy
8C#\	.	(>8ee\	.	(>8gg\	.	.	.	.	.	.	.	.	.	.	.	.
8D\J	.	8dd\J)	.	8ff#\J)	.	.	.	.	.	.	.	.	.	.	.	.
.	.	8qqdd/	.	8qqff#/	.	.	.	.	.	.	.	.	.	.	.	.
8A\L	.	4.cc#\	.	4ee\	.	.	.	.	.	.	.	.	.	.	.	.
8E\	.	.	.	.	.	.	.	.	.	.	.	.	.	.	.	.
8AA\J	.	.	.	8ryy	.	.	.	.	.	.	.	.	.	.	.	.
=51	=51	=51	=51	=51	=51	=51	=51	=51	=51	=51	=51	=51	=51	=51	=51	=51
!	!LO:DY:a	!	!LO:DY:a	!	!LO:DY:a	!	!	!	!	!	!	!	!	!	!	!
!	!LO:DY:t=pia	!	!LO:DY:t=pia	!	!	!	!	!	!	!	!	!	!	!	!	!
4AA/	p	8e/L|	p	8a'\L	p	2.ryy	.	.	.	2.ryy	.	2.ryy	.	2.ryy	.	2.ryy
.	.	8a/|	.	8cc#'\	.	.	.	.	.	.	.	.	.	.	.	.
8r	.	8cc#/J|	.	8ee'\J	.	.	.	.	.	.	.	.	.	.	.	.
4AA/	.	8e/L|	.	8a'\L	.	.	.	.	.	.	.	.	.	.	.	.
.	.	8a/|	.	8cc#'\	.	.	.	.	.	.	.	.	.	.	.	.
8r	.	8cc#/J|	.	8ee'\J	.	.	.	.	.	.	.	.	.	.	.	.
=52	=52	=52	=52	=52	=52	=52	=52	=52	=52	=52	=52	=52	=52	=52	=52	=52
!LO:TX:a:t=P:problem=mixed beam	!	!	!	!	!	!	!	!	!	!	!	!	!	!	!	!
8A\L	.	8ee\L	.	8gg\L	.	2.ryy	.	.	.	2.ryy	.	2.ryy	.	2.ryy	.	2.ryy
8C#/	.	8ee\	.	(8gg\	.	.	.	.	.	.	.	.	.	.	.	.
8D/J	.	8dd\J	.	8ff#\J)	.	.	.	.	.	.	.	.	.	.	.	.
!LO:TX:a:t=P:problem=mixed beam	!	!	!	!	!	!	!	!	!	!	!	!	!	!	!	!
.	.	8qqdd/	.	8qqff#/	.	.	.	.	.	.	.	.	.	.	.	.
8A\L	.	4.cc#\	.	4ee\	.	.	.	.	.	.	.	.	.	.	.	.
8E\	.	.	.	.	.	.	.	.	.	.	.	.	.	.	.	.
8AA/J	.	.	.	8ryy	.	.	.	.	.	.	.	.	.	.	.	.
!	!	!LO:LB:g=original	!	!	!	!	!	!	!	!	!	!	!	!	!	!
=53	=53	=53	=53	=53	=53	=53	=53	=53	=53	=53	=53	=53	=53	=53	=53	=53
!	!LO:DY:a	!	!LO:DY:a	!	!LO:DY:a	!	!	!	!	!	!	!	!	!	!	!
!	!LO:DY:t=for	!	!LO:DY:t=for	!	!LO:DY:t=for	!	!	!	!	!	!	!	!	!	!	!
!	!	!	!	!	!	!	!	!LO:N:vis=00	!	!	!	!	!	!	!	!
8D\L	f	8ff#\L	f	8ddd\L	f	2.ryy	.	0.r	.	2.ryy	.	2.ryy	.	2.ryy	.	2.ryy
8d\	.	8dd\	.	8ff#\	.	.	.	.	.	.	.	.	.	.	.	.
!LO:TX:t=P:problem=w źródle pomiędzy 8c# a 8B dodatkowa kreska taktowa	!	!	!	!	!	!	!	!	!	!	!	!	!	!	!	!
8c#\J	.	8dd\J	.	8ff#\J	.	.	.	.	.	.	.	.	.	.	.	.
8B\L	.	8ff#\L	.	8ddd\L	.	.	.	.	.	.	.	.	.	.	.	.
16A\L	.	8dd\	.	8ff#\	.	.	.	.	.	.	.	.	.	.	.	.
16G\	.	.	.	.	.	.	.	.	.	.	.	.	.	.	.	.
16F#\	.	8dd\J	.	8ff#\J	.	.	.	.	.	.	.	.	.	.	.	.
16D\JJ	.	.	.	.	.	.	.	.	.	.	.	.	.	.	.	.
=54	=54	=54	=54	=54	=54	=54	=54	=54	=54	=54	=54	=54	=54	=54	=54	=54
8F#\L	.	8ff#\L	.	8ddd\L	.	2.ryy	.	.	.	2.ryy	.	2.ryy	.	2.ryy	.	2.ryy
8G\	.	8dd\	.	8ff#\	.	.	.	.	.	.	.	.	.	.	.	.
8A\J	.	8cc#\J	.	8ee\J	.	.	.	.	.	.	.	.	.	.	.	.
.	.	8qqcc#/	.	8qqee/	.	.	.	.	.	.	.	.	.	.	.	.
8D/L	.	4dd\	.	4dd\	.	.	.	.	.	.	.	.	.	.	.	.
8AA/	.	.	.	.	.	.	.	.	.	.	.	.	.	.	.	.
8D/J	.	8r	.	8r	.	.	.	.	.	.	.	.	.	.	.	.
=55	=55	=55	=55	=55	=55	=55	=55	=55	=55	=55	=55	=55	=55	=55	=55	=55
!	!LO:DY:a	!	!LO:DY:a	!	!LO:DY:a	!	!	!	!	!	!	!	!	!	!	!
!	!LO:DY:t=pia	!	!LO:DY:t=pia	!	!LO:DY:t=pia	!	!	!	!	!	!	!	!	!	!	!
8D\L	p	8ff#\L	p	8ddd\L	p	2.ryy	.	.	.	2.ryy	.	2.ryy	.	2.ryy	.	2.ryy
8d\	.	8dd\	.	8ff#\	.	.	.	.	.	.	.	.	.	.	.	.
8c#\J	.	8dd\J	.	8ff#\J	.	.	.	.	.	.	.	.	.	.	.	.
8B\L	.	8ff#\L	.	8ddd\L	.	.	.	.	.	.	.	.	.	.	.	.
16A\L	.	8dd\	.	8ff#\	.	.	.	.	.	.	.	.	.	.	.	.
16G\	.	.	.	.	.	.	.	.	.	.	.	.	.	.	.	.
16F#\	.	8dd\J	.	8ff#\J	.	.	.	.	.	.	.	.	.	.	.	.
16D\JJ	.	.	.	.	.	.	.	.	.	.	.	.	.	.	.	.
!LO:LB:g=original	!	!	!	!	!	!	!	!	!	!	!	!	!	!	!	!
=56	=56	=56	=56	=56	=56	=56	=56	=56	=56	=56	=56	=56	=56	=56	=56	=56
!	!LO:DY:a	!	!	!	!	!	!	!	!	!	!	!	!	!	!	!
!	!LO:DY:t=for	!	!	!	!	!	!	!	!	!	!	!	!	!	!	!
8F#\L	f	8ff#\L	.	8ddd\L	.	2.ryy	.	.	.	2.ryy	.	2.ryy	.	2.ryy	.	2.ryy
8G\	.	8dd\	.	8ff#\	.	.	.	.	.	.	.	.	.	.	.	.
8A\J	.	8cc#\J	.	8ee\J	.	.	.	.	.	.	.	.	.	.	.	.
!	!	!LO:TX:a:t=P:problem=mixed beam	!LO:DY:a	!LO:TX:a:t=P:problem=mixed beam	!LO:DY:a	!	!	!	!	!	!	!	!	!	!	!
!	!	!	!LO:DY:t=for	!	!LO:DY:t=for	!	!	!	!	!	!	!	!	!	!	!
4D\	.	8dd\L	f	8dd\L	f	.	.	.	.	.	.	.	.	.	.	.
.	.	8a\	.	8a\	.	.	.	.	.	.	.	.	.	.	.	.
8r	.	8d/J	.	8d/J	.	.	.	.	.	.	.	.	.	.	.	.
=57	=57	=57	=57	=57	=57	=57	=57	=57	=57	=57	=57	=57	=57	=57	=57	=57
!	!LO:DY:a	!	!LO:DY:a	!	!	!	!	!	!	!	!	!	!	!	!	!
!	!LO:DY:t=pia	!	!LO:DY:t=pia	!	!	!	!	!	!	!	!	!	!	!	!	!
8D\L	p	4.f#/	p	4.a\	.	2.ryy	.	4.A\	a-	2.ryy	.	2.ryy	.	2.ryy	.	2.ryy
8D\	.	.	.	.	.	.	.	.	.	.	.	.	.	.	.	.
8D\J	.	.	.	.	.	.	.	.	.	.	.	.	.	.	.	.
8D\L	.	4.g/	.	4.b\	.	.	.	4.B\	-gnus	.	.	.	.	.	.	.
8D\	.	.	.	.	.	.	.	.	.	.	.	.	.	.	.	.
8D\J	.	.	.	.	.	.	.	.	.	.	.	.	.	.	.	.
=58	=58	=58	=58	=58	=58	=58	=58	=58	=58	=58	=58	=58	=58	=58	=58	=58
.	.	8qqf#/	.	8qqdd/	.	.	.	8qqd/	.	.	.	.	.	.	.	.
8AA/L	.	4.e/	.	4.cc#\	.	2.ryy	.	4.c#\	De-	2.ryy	.	2.ryy	.	2.ryy	.	2.ryy
8AA/	.	.	.	.	.	.	.	.	.	.	.	.	.	.	.	.
8AA/J	.	.	.	.	.	.	.	.	.	.	.	.	.	.	.	.
.	.	8qqe/	.	8qqcc#/	.	.	.	8qqc#/	.	.	.	.	.	.	.	.
8D\L	.	4.f#/	.	4.dd\	.	.	.	4.d\	-i	.	.	.	.	.	.	.
8D\	.	.	.	.	.	.	.	.	.	.	.	.	.	.	.	.
8D\J	.	.	.	.	.	.	.	.	.	.	.	.	.	.	.	.
=59	=59	=59	=59	=59	=59	=59	=59	=59	=59	=59	=59	=59	=59	=59	=59	=59
8D\L	.	4.f#/	.	4.a\	.	2.ryy	.	4A\	qui	2.ryy	.	2.ryy	.	2.ryy	.	2.ryy
8D\	.	.	.	.	.	.	.	.	.	.	.	.	.	.	.	.
8D\J	.	.	.	.	.	.	.	8A\	tol-	.	.	.	.	.	.	.
8D\L	.	4.g/	.	4.b\	.	.	.	4B\	-liſ	.	.	.	.	.	.	.
8D\	.	.	.	.	.	.	.	.	.	.	.	.	.	.	.	.
8D\J	.	.	.	.	.	.	.	8B\	pec-	.	.	.	.	.	.	.
!	!	!	!	!LO:LB:g=original	!	!	!	!	!	!	!	!	!	!	!	!
=60	=60	=60	=60	=60	=60	=60	=60	=60	=60	=60	=60	=60	=60	=60	=60	=60
.	.	8qqf#/	.	8qqdd/	.	.	.	8qqd/	.	.	.	.	.	.	.	.
8AA/L	.	4.e/	.	4.cc#\	.	2.ryy	.	4.c#\	-ca-	2.ryy	.	2.ryy	.	2.ryy	.	2.ryy
8AA/	.	.	.	.	.	.	.	.	.	.	.	.	.	.	.	.
8AA/J	.	.	.	.	.	.	.	.	.	.	.	.	.	.	.	.
.	.	8qqe/	.	8qqcc#/	.	.	.	8qqc#/	.	.	.	.	.	.	.	.
8D\L	.	4.f#/	.	4.dd\	.	.	.	4.d\	-ta	.	.	.	.	.	.	.
8D\	.	.	.	.	.	.	.	.	.	.	.	.	.	.	.	.
8D\J	.	.	.	.	.	.	.	.	.	.	.	.	.	.	.	.
=61	=61	=61	=61	=61	=61	=61	=61	=61	=61	=61	=61	=61	=61	=61	=61	=61
4D\	.	8a\L	.	8dd\L	.	2.ryy	.	(>8d\L	pec-	2.ryy	.	2.ryy	.	2.ryy	.	2.ryy
.	.	(>8cc#\	.	(>8ee\	.	.	.	8e\	.	.	.	.	.	.	.	.
8D\	.	8dd\J)	.	8ff#\J)	.	.	.	8f#\J)	.	.	.	.	.	.	.	.
4C#\	.	4ee\	.	4gg\	.	.	.	4g\	-ca-	.	.	.	.	.	.	.
8D\	.	8dd\	.	8ff#\	.	.	.	8f#\	-ta	.	.	.	.	.	.	.
=62	=62	=62	=62	=62	=62	=62	=62	=62	=62	=62	=62	=62	=62	=62	=62	=62
!	!	!LO:TX:a:t=t.	!	!LO:TX:a:t=t.	!	!	!	!	!	!	!	!	!	!	!	!
4A\	.	4.dd\	.	4.ff#\	.	2.ryy	.	4.f#\	mun-	2.ryy	.	2.ryy	.	2.ryy	.	2.ryy
8AA/	.	.	.	.	.	.	.	.	.	.	.	.	.	.	.	.
.	.	8qqdd/	.	8qqff#/	.	.	.	8qqf#/	.	.	.	.	.	.	.	.
!LO:TX:a:t=P:problem=mixed beam	!	!	!	!	!	!	!	!	!	!	!	!	!	!	!	!
8AA/L	.	4.cc#\	.	4.ee\	.	.	.	4.e\	-di	.	.	.	.	.	.	.
16A\L	.	.	.	.	.	.	.	.	.	.	.	.	.	.	.	.
16G\	.	.	.	.	.	.	.	.	.	.	.	.	.	.	.	.
16F#\	.	.	.	.	.	.	.	.	.	.	.	.	.	.	.	.
16E\JJ	.	.	.	.	.	.	.	.	.	.	.	.	.	.	.	.
!	!	!LO:LB:g=original	!	!	!	!	!	!	!	!	!	!	!	!	!	!
=63	=63	=63	=63	=63	=63	=63	=63	=63	=63	=63	=63	=63	=63	=63	=63	=63
8D\L	.	8a\L	.	8ccn\L	.	2.ryy	.	4.cn\	mi-	2.ryy	.	2.ryy	.	2.ryy	.	2.ryy
8D\	.	8a\	.	8cc\	.	.	.	.	.	.	.	.	.	.	.	.
8D\J	.	8a\J	.	8cc\J	.	.	.	.	.	.	.	.	.	.	.	.
4D\	.	8a\L	.	8cc\L	.	.	.	(>8c\L	-se-	.	.	.	.	.	.	.
.	.	(>8ccn\	.	(>8ee\	.	.	.	8e\	.	.	.	.	.	.	.	.
8r	.	8b\J)	.	8dd\J)	.	.	.	8d\J)	.	.	.	.	.	.	.	.
!	!	!	!	!	!	!	!	!LO:LB:g=original	!	!	!	!	!	!	!	!
=64	=64	=64	=64	=64	=64	=64	=64	=64	=64	=64	=64	=64	=64	=64	=64	=64
4D\	.	8a/L	.	8ccn\L	.	2.ryy	.	(>8c#\L	-re-	2.ryy	.	2.ryy	.	2.ryy	.	2.ryy
.	.	(<8g/	.	8b\	.	.	.	8B\	.	.	.	.	.	.	.	.
8D\	.	8f#/J)	.	8a\J	.	.	.	8A\J)	.	.	.	.	.	.	.	.
!LO:TX:a:t=P:problem=mixed beam	!	!	!	!	!	!	!	!	!	!	!	!	!	!	!	!
.	.	.	.	.	.	.	.	8qqA/	.	.	.	.	.	.	.	.
8G\L	.	8g/L	.	8b/L	.	.	.	4.B\	-re	.	.	.	.	.	.	.
8D\	.	8d/	.	8d/	.	.	.	.	.	.	.	.	.	.	.	.
8GG/J	.	8G/J	.	8G/J	.	.	.	.	.	.	.	.	.	.	.	.
=65	=65	=65	=65	=65	=65	=65	=65	=65	=65	=65	=65	=65	=65	=65	=65	=65
8E\L	.	8b\L	.	8dd\L	.	2.ryy	.	4.d\	mi-	2.ryy	.	2.ryy	.	2.ryy	.	2.ryy
8E\	.	8b\	.	8dd\	.	.	.	.	.	.	.	.	.	.	.	.
8E\J	.	8b\J	.	8dd\J	.	.	.	.	.	.	.	.	.	.	.	.
4E\	.	8b\L	.	8dd\L	.	.	.	(>8d\L	-se-	.	.	.	.	.	.	.
.	.	(>8dd\	.	(>8ff#\	.	.	.	8f#\	.	.	.	.	.	.	.	.
8r	.	8cc#X\J)	.	8ee\J)	.	.	.	8e\J)	.	.	.	.	.	.	.	.
!LO:LB:g=original	!	!	!	!	!	!	!	!	!	!	!	!	!	!	!	!
=66	=66	=66	=66	=66	=66	=66	=66	=66	=66	=66	=66	=66	=66	=66	=66	=66
4E\	.	8b/L	.	8dd\L	.	2.ryy	.	(>8d\L	-re-	2.ryy	.	2.ryy	.	2.ryy	.	2.ryy
.	.	(<8a/	.	8cc#X\	.	.	.	8c#X\	.	.	.	.	.	.	.	.
8E\	.	8g#X/J)	.	8b\J	.	.	.	8B\J)	.	.	.	.	.	.	.	.
!	!	!	!	!LO:TX:a:t=P:problem=mixed beam	!	!	!	!	!	!	!	!	!	!	!	!
.	.	.	.	.	.	.	.	8qqB/	.	.	.	.	.	.	.	.
!LO:TX:a:t=P:problem=mixed beam	!	!	!	!	!	!	!	!	!	!	!	!	!	!	!	!
8A\L	.	8a/L	.	8cc#\L	.	.	.	4.c#\	-re	.	.	.	.	.	.	.
8E\	.	8e/	.	8e/	.	.	.	.	.	.	.	.	.	.	.	.
8AA/J	.	8A/J	.	8A/J	.	.	.	.	.	.	.	.	.	.	.	.
=67	=67	=67	=67	=67	=67	=67	=67	=67	=67	=67	=67	=67	=67	=67	=67	=67
8F#\L	.	8cc#\L	.	8ee\L	.	2.ryy	.	4.e\	mi-	2.ryy	.	2.ryy	.	2.ryy	.	2.ryy
8F#\	.	8cc#\	.	8ee\	.	.	.	.	.	.	.	.	.	.	.	.
8F#\J	.	8cc#\J	.	8ee\J	.	.	.	.	.	.	.	.	.	.	.	.
4F#\	.	8cc#\L	.	8ee\L	.	.	.	(>8e\L	-se-	.	.	.	.	.	.	.
.	.	(>8ee\	.	(>8gg\	.	.	.	8g\	.	.	.	.	.	.	.	.
8r	.	8dd\J)	.	8ff#\J)	.	.	.	8f#\J)	.	.	.	.	.	.	.	.
=68	=68	=68	=68	=68	=68	=68	=68	=68	=68	=68	=68	=68	=68	=68	=68	=68
4F#\	.	8cc#\L	.	8ee\L	.	2.ryy	.	(>8e\L	-re-	2.ryy	.	2.ryy	.	2.ryy	.	2.ryy
.	.	8b\	.	(>8dd\	.	.	.	8d\	.	.	.	.	.	.	.	.
8F#\	.	8a#X\J	.	8cc#\J)	.	.	.	8c#\J)	.	.	.	.	.	.	.	.
!	!	!	!	!LO:TX:a:t=P:problem=mixed beam	!	!	!	!	!	!	!	!	!	!	!	!
.	.	.	.	.	.	.	.	8qqc#/	.	.	.	.	.	.	.	.
!LO:TX:a:t=P:problem=mixed beam	!	!	!	!	!	!	!	!	!	!	!	!	!	!	!	!
8B\L	.	8b/L	.	8dd\L	.	.	.	4.d\	-re	.	.	.	.	.	.	.
8F#\	.	8f#/	.	8f#/	.	.	.	.	.	.	.	.	.	.	.	.
8BB/J	.	8B/J	.	8B/J	.	.	.	.	.	.	.	.	.	.	.	.
=69	=69	=69	=69	=69	=69	=69	=69	=69	=69	=69	=69	=69	=69	=69	=69	=69
4BB/	.	8dd\L	.	8ff#\L	.	2.ryy	.	(>8f#\L	mi-	2.ryy	.	2.ryy	.	2.ryy	.	2.ryy
.	.	(>8cc#\	.	(>8ee\	.	.	.	8e\J)	.	.	.	.	.	.	.	.
8r	.	8b\J)	.	8dd\J)	.	.	.	8d\	-se-	.	.	.	.	.	.	.
4BB/	.	8dd\L	.	8ff#\L	.	.	.	(>8f#\L	-re-	.	.	.	.	.	.	.
.	.	(>8cc#\	.	(>8ee\	.	.	.	8e\J)	.	.	.	.	.	.	.	.
8E\	.	8b\J)	.	8dd\J)	.	.	.	8d\	-re	.	.	.	.	.	.	.
!	!	!	!	!LO:LB:g=original	!	!	!	!	!	!	!	!	!	!	!	!
=70	=70	=70	=70	=70	=70	=70	=70	=70	=70	=70	=70	=70	=70	=70	=70	=70
4F#\	.	4.b\	.	4.dd\	.	2.ryy	.	4.d\	no-	2.ryy	.	2.ryy	.	2.ryy	.	2.ryy
8F#\	.	.	.	.	.	.	.	.	.	.	.	.	.	.	.	.
.	.	8qqb/	.	8qqdd/	.	.	.	8qqd/	.	.	.	.	.	.	.	.
8F#\L	.	4.a#X\	.	4.cc#\	.	.	.	4.c#\	-biſ	.	.	.	.	.	.	.
16F#\L	.	.	.	.	.	.	.	.	.	.	.	.	.	.	.	.
16E\	.	.	.	.	.	.	.	.	.	.	.	.	.	.	.	.
16D\	.	.	.	.	.	.	.	.	.	.	.	.	.	.	.	.
16C#\JJ	.	.	.	.	.	.	.	.	.	.	.	.	.	.	.	.
!	!	!LO:PB:g=original	!	!	!	!	!	!	!	!	!	!	!	!	!	!
=71	=71	=71	=71	=71	=71	=71	=71	=71	=71	=71	=71	=71	=71	=71	=71	=71
8BB/L	.	4.dd\	.	4.ff#\	.	2.ryy	.	4.f#\	a-	2.ryy	.	2.ryy	.	2.ryy	.	2.ryy
8BB/	.	.	.	.	.	.	.	.	.	.	.	.	.	.	.	.
8BB/J	.	.	.	.	.	.	.	.	.	.	.	.	.	.	.	.
8BB/L	.	4.ee\	.	4.gg\	.	.	.	4.g\	-gnus	.	.	.	.	.	.	.
8BB/	.	.	.	.	.	.	.	.	.	.	.	.	.	.	.	.
8BB/J	.	.	.	.	.	.	.	.	.	.	.	.	.	.	.	.
=72	=72	=72	=72	=72	=72	=72	=72	=72	=72	=72	=72	=72	=72	=72	=72	=72
4BB/	.	(>8dd\L	.	8ff#\L	.	2.ryy	.	8f#\	De-	2.ryy	.	2.ryy	.	2.ryy	.	2.ryy
.	.	8cc#\)	.	(>8ee\	.	.	.	8e\	-i	.	.	.	.	.	.	.
8r	.	8b\J	.	8dd\J)	.	.	.	8d\	qui	.	.	.	.	.	.	.
!	!	!	!	!	!	!	!	!LO:LB:g=original	!	!	!	!	!	!	!	!
4F#\	.	(>8cc#\L	.	8ee\L	.	.	.	8e\	tol-	.	.	.	.	.	.	.
.	.	8b\)	.	(>8dd\	.	.	.	8d\	-liſ	.	.	.	.	.	.	.
8r	.	8a\J	.	8cc#\J)	.	.	.	8c#\	pec-	.	.	.	.	.	.	.
=73	=73	=73	=73	=73	=73	=73	=73	=73	=73	=73	=73	=73	=73	=73	=73	=73
8BB/L	.	4.f#/	.	4.dd\	.	2.ryy	.	4.d\	-ca-	2.ryy	.	2.ryy	.	2.ryy	.	2.ryy
8BB/	.	.	.	.	.	.	.	.	.	.	.	.	.	.	.	.
8BB/J	.	.	.	.	.	.	.	.	.	.	.	.	.	.	.	.
8BB/L	.	4.g/	.	4.ee\	.	.	.	4.e\	-ta	.	.	.	.	.	.	.
8BB/	.	.	.	.	.	.	.	.	.	.	.	.	.	.	.	.
8BB/J	.	.	.	.	.	.	.	.	.	.	.	.	.	.	.	.
=74	=74	=74	=74	=74	=74	=74	=74	=74	=74	=74	=74	=74	=74	=74	=74	=74
4BB/	.	8f#/L	.	(>8dd\L	.	2.ryy	.	(>8d\L	mun-	2.ryy	.	2.ryy	.	2.ryy	.	2.ryy
.	.	(<8e/	.	8cc#\)	.	.	.	8c#\	.	.	.	.	.	.	.	.
8r	.	8d/J)	.	8b\J	.	.	.	8B\J)	.	.	.	.	.	.	.	.
4F#\	.	8e/L	.	(>8cc#\L	.	.	.	(>8c#\L	.	.	.	.	.	.	.	.
.	.	(<8d/	.	8b\)	.	.	.	8B\	.	.	.	.	.	.	.	.
8r	.	8c#/J)	.	8a#X\J	.	.	.	8A#X\J)	.	.	.	.	.	.	.	.
=75	=75	=75	=75	=75	=75	=75	=75	=75	=75	=75	=75	=75	=75	=75	=75	=75
!	!	!	!	!	!	!	!	!LO:SIC:s=q8A#	!	!	!	!	!	!	!	!
.	.	.	.	.	.	.	.	8qqA/	.	.	.	.	.	.	.	.
8B\L	.	8d/L	.	8b/L	.	2.ryy	.	4.B\	-di	2.ryy	.	2.ryy	.	2.ryy	.	2.ryy
16F#\L	.	16f#/L	.	16f#/L	.	.	.	.	.	.	.	.	.	.	.	.
16E\	.	(<16e/	.	16e/	.	.	.	.	.	.	.	.	.	.	.	.
16D\	.	16d/	.	16d/	.	.	.	.	.	.	.	.	.	.	.	.
16C#\JJ	.	16c#/JJ)	.	16c#/JJ	.	.	.	.	.	.	.	.	.	.	.	.
8BB/L	.	4B/	.	4B/	.	.	.	4r	.	.	.	.	.	.	.	.
8D/	.	.	.	.	.	.	.	.	.	.	.	.	.	.	.	.
8BB/J	.	8r	.	8r	.	.	.	8r	.	.	.	.	.	.	.	.
!LO:LB:g=original	!	!	!	!	!	!	!	!	!	!	!	!	!	!	!	!
=76	=76	=76	=76	=76	=76	=76	=76	=76	=76	=76	=76	=76	=76	=76	=76	=76
4F#\	.	8c#/L|	.	8f#/L|	.	2.ryy	.	4A#X\	mi-	2.ryy	.	2.ryy	.	2.ryy	.	2.ryy
.	.	8f#/|	.	8a#X/|	.	.	.	.	.	.	.	.	.	.	.	.
8r	.	8a#X/J|	.	8cc#/J|	.	.	.	8c#\	-se-	.	.	.	.	.	.	.
4F#\	.	8c#/L|	.	8f#/L|	.	.	.	4A#\	-re-	.	.	.	.	.	.	.
.	.	8f#/|	.	8a#X/|	.	.	.	.	.	.	.	.	.	.	.	.
8r	.	8a#X/J|	.	8cc#/J|	.	.	.	8c#\	-re	.	.	.	.	.	.	.
=77	=77	=77	=77	=77	=77	=77	=77	=77	=77	=77	=77	=77	=77	=77	=77	=77
!LO:TX:a:t=P:problem=mixed beam	!	!	!	!	!	!	!	!	!	!	!	!	!	!	!	!
8F#\L	.	8cc#\L	.	8ee\L	.	2.ryy	.	4e\	no-	2.ryy	.	2.ryy	.	2.ryy	.	2.ryy
8AA#X/	.	8cc#\	.	(>8ee\	.	.	.	.	.	.	.	.	.	.	.	.
8BB/J	.	8b\J	.	8dd\J)	.	.	.	8d\	.	.	.	.	.	.	.	.
!LO:TX:a:t=P:problem=mixed beam	!	!	!	!	!	!	!	!	!	!	!	!	!	!	!	!
.	.	8qqb/	.	8qqdd/	.	.	.	8qqd/	.	.	.	.	.	.	.	.
8F#\L	.	4a#X/	.	4.cc#\	.	.	.	4c#\	-bis	.	.	.	.	.	.	.
8C#/	.	.	.	.	.	.	.	.	.	.	.	.	.	.	.	.
8FF#/J	.	8ryy	.	.	.	.	.	8r	.	.	.	.	.	.	.	.
=78	=78	=78	=78	=78	=78	=78	=78	=78	=78	=78	=78	=78	=78	=78	=78	=78
4F#\	.	8c#/L|	.	8f#/L|	.	2.ryy	.	4A#X\	mi-	2.ryy	.	2.ryy	.	2.ryy	.	2.ryy
.	.	8f#/|	.	8a#X/|	.	.	.	.	.	.	.	.	.	.	.	.
8r	.	8a#X/J|	.	8cc#/J|	.	.	.	8c#\	-se-	.	.	.	.	.	.	.
4F#\	.	8c#/L|	.	8f#/L|	.	.	.	4A#\	-re-	.	.	.	.	.	.	.
.	.	8f#/|	.	8a#X/|	.	.	.	.	.	.	.	.	.	.	.	.
8r	.	8a#X/J|	.	8cc#/J|	.	.	.	8c#\	-re	.	.	.	.	.	.	.
!	!	!LO:LB:g=original	!	!	!	!	!	!	!	!	!	!	!	!	!	!
=79	=79	=79	=79	=79	=79	=79	=79	=79	=79	=79	=79	=79	=79	=79	=79	=79
!LO:TX:a:t=P:problem=mixed beam	!	!	!	!	!	!	!	!	!	!	!	!	!	!	!	!
8F#\L	.	8cc#\L	.	8ee\L	.	2.ryy	.	4e\	no-	2.ryy	.	2.ryy	.	2.ryy	.	2.ryy
8AA#X/	.	8cc#\	.	8ee\	.	.	.	.	.	.	.	.	.	.	.	.
8BB/J	.	8b\J	.	8dd\J	.	.	.	8d\	.	.	.	.	.	.	.	.
!LO:TX:a:t=P:problem=mixed beam	!	!	!	!	!	!	!	!	!	!	!	!	!	!	!	!
.	.	8qqb/	.	8qqdd/	.	.	.	8qqd/	.	.	.	.	.	.	.	.
8F#\L	.	4.a#X/	.	4.cc#\	.	.	.	4.c#\	-bis	.	.	.	.	.	.	.
8C#\	.	.	.	.	.	.	.	.	.	.	.	.	.	.	.	.
8FF#/J	.	.	.	.	.	.	.	.	.	.	.	.	.	.	.	.
!	!	!	!	!	!	!	!	!LO:LB:g=original	!	!	!	!	!	!	!	!
=80	=80	=80	=80	=80	=80	=80	=80	=80	=80	=80	=80	=80	=80	=80	=80	=80
!LO:TX:a:t=P:problem=mixed beam	!	!	!	!	!	!	!	!	!	!	!	!	!	!	!	!
8BB/L	.	8dd\L	.	8bb\L	.	2.ryy	.	4d\	mi-	2.ryy	.	2.ryy	.	2.ryy	.	2.ryy
8B\	.	8b\	.	8dd\	.	.	.	.	.	.	.	.	.	.	.	.
8An\J	.	8b\J	.	8dd\J	.	.	.	8d\	-se-	.	.	.	.	.	.	.
8G\L	.	8dd\L	.	8bb\L	.	.	.	4d\	-re-	.	.	.	.	.	.	.
16F#\L	.	8b\	.	8dd\	.	.	.	.	.	.	.	.	.	.	.	.
16E\	.	.	.	.	.	.	.	.	.	.	.	.	.	.	.	.
16D\	.	8b\J	.	8dd\J	.	.	.	8d\	-re	.	.	.	.	.	.	.
16C#\JJ	.	.	.	.	.	.	.	.	.	.	.	.	.	.	.	.
=81	=81	=81	=81	=81	=81	=81	=81	=81	=81	=81	=81	=81	=81	=81	=81	=81
8D\L	.	8dd\L	.	8bb\L	.	2.ryy	.	4d\	no-	2.ryy	.	2.ryy	.	2.ryy	.	2.ryy
8E\	.	8b\	.	8dd\	.	.	.	.	.	.	.	.	.	.	.	.
8F#\J	.	8a#X\J	.	8cc#\J	.	.	.	8c#\	.	.	.	.	.	.	.	.
!LO:TX:a:t=P:problem=mixed beam	!	!	!	!	!	!	!	!	!	!	!	!	!	!	!	!
.	.	8qqa#/	.	8qqcc#/	.	.	.	8qqc#/	.	.	.	.	.	.	.	.
8B\L	.	4b\	.	4b\	.	.	.	4B\	-bis	.	.	.	.	.	.	.
8F#\	.	.	.	.	.	.	.	.	.	.	.	.	.	.	.	.
8BB\J	.	8r	.	8r	.	.	.	8r	.	.	.	.	.	.	.	.
!	!	!	!	!LO:LB:g=original	!	!	!	!	!	!	!	!	!	!	!	!
=82	=82	=82	=82	=82	=82	=82	=82	=82	=82	=82	=82	=82	=82	=82	=82	=82
!LO:TX:a:t=P:problem=mixed beam	!	!LO:TX:t=P:problem=w źródle takty 82-83 zapisane jako repetycja taktów 80-81	!	!	!	!	!	!	!	!	!	!	!	!	!	!
8BB/L	.	8dd\L	.	8bb\L	.	2.ryy	.	4d\	mi-	2.ryy	.	2.ryy	.	2.ryy	.	2.ryy
8B\	.	8b\	.	8dd\	.	.	.	.	.	.	.	.	.	.	.	.
8A\J	.	8b\J	.	8dd\J	.	.	.	8d\	-se-	.	.	.	.	.	.	.
8G\L	.	8dd\L	.	8bb\L	.	.	.	4d\	-re-	.	.	.	.	.	.	.
16F#\L	.	8b\	.	8dd\	.	.	.	.	.	.	.	.	.	.	.	.
16E\	.	.	.	.	.	.	.	.	.	.	.	.	.	.	.	.
16D\	.	8b\J	.	8dd\J	.	.	.	8d\	-re	.	.	.	.	.	.	.
16BB\JJ	.	.	.	.	.	.	.	.	.	.	.	.	.	.	.	.
=83	=83	=83	=83	=83	=83	=83	=83	=83	=83	=83	=83	=83	=83	=83	=83	=83
2.ryy	.	8dd\L	.	2.ryy	.	2.ryy	.	2.ryy	.	2.ryy	.	2.ryy	.	2.ryy	.	2.ryy
.	.	8b\	.	.	.	.	.	.	.	.	.	.	.	.	.	.
.	.	8a#X\J	.	.	.	.	.	.	.	.	.	.	.	.	.	.
.	.	8qqa#/	.	.	.	.	.	.	.	.	.	.	.	.	.	.
.	.	4b\	.	.	.	.	.	.	.	.	.	.	.	.	.	.
.	.	8r	.	.	.	.	.	.	.	.	.	.	.	.	.	.
=84	=84	=84	=84	=84	=84	=84	=84	=84	=84	=84	=84	=84	=84	=84	=84	=84
8D\L	.	8dd\L	.	8bb\L	.	2.ryy	.	4d\	no-	2.ryy	.	2.ryy	.	2.ryy	.	2.ryy
8E\	.	8b\	.	8dd\	.	.	.	.	.	.	.	.	.	.	.	.
8F#\J	.	8a#X\J	.	8cc#\J	.	.	.	8c#\	.	.	.	.	.	.	.	.
!	!	!LO:TX:a:t=P:problem=mixed beam	!	!	!	!	!	!	!	!	!	!	!	!	!	!
.	.	.	.	.	.	.	.	8qqc#/	.	.	.	.	.	.	.	.
!	!	!	!	!LO:TX:a:t=P:problem=mixed beam	!	!	!	!	!	!	!	!	!	!	!	!
8BB/	.	8b\L	.	8b\L	.	.	.	4B\	-bis	.	.	.	.	.	.	.
8r	.	8bb\	.	8bb\	.	.	.	.	.	.	.	.	.	.	.	.
8E#X\	.	8e#X/J	.	8e#X/J	.	.	.	8r	.	.	.	.	.	.	.	.
=85	=85	=85	=85	=85	=85	=85	=85	=85	=85	=85	=85	=85	=85	=85	=85	=85
2F#;\	.	2.f#;/	.	2.f#/	.	2.ryy	.	4.B\	no-	2.ryy	.	2.ryy	.	2.ryy	.	2.ryy
.	.	.	.	.	.	.	.	4.c#;\	.	.	.	.	.	.	.	.
!LO:TX:t=P:problem=w źródle "Dacapo" zapisane na pięciolinii, za taktem 85	!	!	!	!	!	!	!	!	!	!	!	!	!	!	!	!
!LO:TX:a:t=Dacapo	!	!	!	!	!	!	!	!	!	!	!	!	!	!	!	!
4ryy	.	.	.	.	.	.	.	.	.	.	.	.	.	.	.	.
!	!	!LO:TX:t=P:problem=w źródle "Dacapo" zapisane na pięciolinii, za taktem 85	!	!	!	!	!	!	!	!	!	!	!	!	!	!
!	!	!	!	!LO:TX:t=P:problem=w źródle "Dacapo" zapisane na pięciolinii, za taktem 85	!	!	!	!	!	!	!	!	!	!	!	!
!	!	!LO:TX:a:t=Dacapo	!	!LO:TX:a:t=Dacapo	!	!	!	!	!	!	!	!	!	!	!	!
=86	=86	=86	=86	=86	=86	=86	=86	=86	=86	=86	=86	=86	=86	=86	=86	=86
2.ryy	.	2.ryy	.	2.ryy	.	2.ryy	.	4B\	-bis	2.ryy	.	2.ryy	.	2.ryy	.	2.ryy
.	.	.	.	.	.	.	.	4r	.	.	.	.	.	.	.	.
.	.	.	.	.	.	.	.	8r	.	.	.	.	.	.	.	.
.	.	.	.	.	.	.	.	8ryy	.	.	.	.	.	.	.	.
!	!	!	!	!	!	!	!	!	!	!	!	!	!	!LO:TX:t=P:problem=błąd renderowania - zamiast 12 pustych taktów wyświetla się belka oznaczająca 12 pustych taktów	!	!
!	!	!	!	!	!	!	!	!	!	!	!	!LO:TX:t=P:problem=błąd renderowania - zamiast 12 pustych taktów wyświetla się belka oznaczająca 12 pustych taktów	!	!	!	!
!LO:TX:t=P:problem=błąd renderowania - zamiast 12 pustych taktów wyświetla się belka oznaczająca 12 pustych taktów	!	!	!	!	!	!	!	!	!	!	!	!	!	!	!	!
!	!	!LO:TX:t=P:problem=błąd renderowania - zamiast 12 pustych taktów wyświetla się belka oznaczająca 12 pustych taktów	!	!	!	!	!	!	!	!	!	!	!	!	!	!
!	!	!	!	!LO:TX:t=P:problem=błąd renderowania - zamiast 12 pustych taktów wyświetla się belka oznaczająca 12 pustych taktów	!	!	!	!	!	!	!	!	!	!	!	!
!	!	!	!	!	!	!	!	!	!	!LO:TX:t=P:problem=błąd renderowania - zamiast 12 pustych taktów wyświetla się belka oznaczająca 12 pustych taktów	!	!	!	!	!	!
!	!	!	!	!	!	!	!	!LO:TX:t=P:problem=błąd renderowania - zamiast 12 pustych taktów wyświetla się belka oznaczająca 12 pustych taktów	!	!	!	!	!	!	!	!
=87	=87	=87	=87	=87	=87	=87	=87	=87	=87	=87	=87	=87	=87	=87	=87	=87
!	!	!	!	!	!	!	!	!LO:N:vis=00	!	!	!	!	!	!	!	!
2.ryy	.	2.ryy	.	2.ryy	.	2.ryy	.	0.r	.	2.ryy	.	2.ryy	.	2.ryy	.	2.ryy
=88	=88	=88	=88	=88	=88	=88	=88	=88	=88	=88	=88	=88	=88	=88	=88	=88
2.ryy	.	2.ryy	.	2.ryy	.	2.ryy	.	.	.	2.ryy	.	2.ryy	.	2.ryy	.	2.ryy
=89	=89	=89	=89	=89	=89	=89	=89	=89	=89	=89	=89	=89	=89	=89	=89	=89
2.ryy	.	2.ryy	.	2.ryy	.	2.ryy	.	.	.	2.ryy	.	2.ryy	.	2.ryy	.	2.ryy
=90	=90	=90	=90	=90	=90	=90	=90	=90	=90	=90	=90	=90	=90	=90	=90	=90
2.ryy	.	2.ryy	.	2.ryy	.	2.ryy	.	.	.	2.ryy	.	2.ryy	.	2.ryy	.	2.ryy
=91	=91	=91	=91	=91	=91	=91	=91	=91	=91	=91	=91	=91	=91	=91	=91	=91
!	!	!	!	!	!	!	!	!LO:N:vis=00	!	!	!	!	!	!	!	!
2.ryy	.	2.ryy	.	2.ryy	.	2.ryy	.	0.r	.	2.ryy	.	2.ryy	.	2.ryy	.	2.ryy
=92	=92	=92	=92	=92	=92	=92	=92	=92	=92	=92	=92	=92	=92	=92	=92	=92
2.ryy	.	2.ryy	.	2.ryy	.	2.ryy	.	.	.	2.ryy	.	2.ryy	.	2.ryy	.	2.ryy
=93	=93	=93	=93	=93	=93	=93	=93	=93	=93	=93	=93	=93	=93	=93	=93	=93
2.ryy	.	2.ryy	.	2.ryy	.	2.ryy	.	.	.	2.ryy	.	2.ryy	.	2.ryy	.	2.ryy
=94	=94	=94	=94	=94	=94	=94	=94	=94	=94	=94	=94	=94	=94	=94	=94	=94
2.ryy	.	2.ryy	.	2.ryy	.	2.ryy	.	.	.	2.ryy	.	2.ryy	.	2.ryy	.	2.ryy
=95	=95	=95	=95	=95	=95	=95	=95	=95	=95	=95	=95	=95	=95	=95	=95	=95
!	!	!	!	!	!	!	!	!LO:N:vis=00	!	!	!	!	!	!	!	!
2.ryy	.	2.ryy	.	2.ryy	.	2.ryy	.	0.r	.	2.ryy	.	2.ryy	.	2.ryy	.	2.ryy
=96	=96	=96	=96	=96	=96	=96	=96	=96	=96	=96	=96	=96	=96	=96	=96	=96
2.ryy	.	2.ryy	.	2.ryy	.	2.ryy	.	.	.	2.ryy	.	2.ryy	.	2.ryy	.	2.ryy
=97	=97	=97	=97	=97	=97	=97	=97	=97	=97	=97	=97	=97	=97	=97	=97	=97
2.ryy	.	2.ryy	.	2.ryy	.	2.ryy	.	.	.	2.ryy	.	2.ryy	.	2.ryy	.	2.ryy
=98	=98	=98	=98	=98	=98	=98	=98	=98	=98	=98	=98	=98	=98	=98	=98	=98
!	!	!	!	!	!	!	!	!LO:TX:a:t=problem&colon;na kresce fermata	!	!	!	!	!	!	!	!
2.ryy	.	2.ryy	.	2.ryy	.	2.ryy	.	.	.	2.ryy	.	2.ryy	.	2.ryy	.	2.ryy
!LO:LB:g=original	!	!	!	!	!	!LO:LB:g=original	!	!LO:LB:g=original	!	!	!	!	!	!LO:PB:g=original	!	!
=99	=99	=99	=99	=99	=99	=99	=99	=99	=99	=99	=99	=99	=99	=99	=99	=99
*k[f#c#]	*	*k[f#c#]	*	*k[f#c#]	*	*k[f#c#]	*	*k[f#c#]	*	*k[f#c#]	*	*k[f#c#]	*	*k[f#c#]	*	*k[f#c#]
*M4/4	*	*M4/4	*	*M4/4	*	*M4/4	*	*M4/4	*	*M4/4	*	*M4/4	*	*M4/4	*	*M4/4
*met(c)	*	*met(c)	*	*met(c)	*	*met(c)	*	*met(c)	*	*met(c)	*	*met(c)	*	*met(c)	*	*met(c)
*	*	*	*	*clefG2	*	*	*	*	*	*	*	*	*	*	*	*
!LO:TX:t=P:problem=przed tym taktem jeden takt wytarty	!	!	!	!LO:TX:b:t=Agnus	!	!	!	!	!	!	!	!	!	!	!	!
!LO:TX:b:t=Agnus	!	!	!	!LO:TX:a:t=adagio	!	!	!	!	!	!	!	!	!	!LO:TX:b:t=Agnus	!	!
!LO:TX:a:t=adagio	!	!LO:TX:b:t=Agnus	!	!LO:TX:t=P:problem=w źródle klucz G2 jest zapisany przed znakami przykluczowymi i oznaczeniem metrycznym	!	!LO:TX:a:t=adagio	!	!LO:TX:a:t=adagio	!	!LO:TX:a:t=adagio	!	!	!	!LO:TX:a:t=adagio	!	!
!	!	!	!	!	!	!LO:TX:t=P:problem=błąd renderowania - zamiast 12 pustych taktów wyświetla się belka oznaczająca 12 pustych taktów	!	!	!	!	!	!	!	!	!	!
8D\L	.	8a/L	.	8ff#\L	.	8D\	A-	8A\	A-	8ff#\	A-	8dd\L	.	8ff#\L	.	1ryy
8D\J	.	8a/J	.	8ff#\J	.	8D\	-gnuſ	8A\	-gnus	8ff#\	-gnus	8dd\J	.	8ff#\J	.	.
4D\	.	4a/	.	4ff#\	.	4D\	De-	4A\	De-	4ff#\	De-	4dd\	.	4ff#\	.	.
4D\	.	4a/	.	4ff#\	.	4D\	-i	4A\	-i	4ff#\	-i	4dd\	.	4ff#\	.	.
4r	.	4r	.	4r	.	4r	.	4r	.	4r	.	4r	.	4r	.	.
=100	=100	=100	=100	=100	=100	=100	=100	=100	=100	=100	=100	=100	=100	=100	=100	=100
2D\	.	2a/	.	4.ff#\	.	2D\	qui	2A\	qui	2ff#\	qui	2dd\	.	2ff#\	.	1ryy
!	!	!	!	!LO:TX:t=P:problem=w źródle między 8aa a 4gg#X dodatkowa kreska tatkowa	!	!	!	!	!	!	!	!	!	!	!	!
.	.	.	.	8aa\	.	.	.	.	.	.	.	.	.	.	.	.
4E\	.	4b/	.	4gg#X\	.	4E\	tol-	4B\	tol-	4gg#X\	tol-	4ee\	.	4ee\	.	.
4E\	.	4b/	.	4gg#\	.	4E\	-liſ	4B\	-lis	4gg#\	-lis	4ee\	.	4ee\	.	.
=101	=101	=101	=101	=101	=101	=101	=101	=101	=101	=101	=101	=101	=101	=101	=101	=101
2E\	.	4dd\	.	4bb\	.	2E\	pec-	2B\	pec-	2dd\	pec-	2ee\	.	2ee\	.	1ryy
.	.	4b\	.	4dd\	.	.	.	.	.	.	.	.	.	.	.	.
4A\	.	4e/	.	4cc#\	.	4A\	-ca-	4A\	-ca-	4cc#\	-ca-	4a/	.	4ee\	.	.
4AA/	.	4e/	.	4cc#\	.	4AA/	-ta	4E/	-ta	4cc#\	-ta	4a/	.	4ee\	.	.
=102	=102	=102	=102	=102	=102	=102	=102	=102	=102	=102	=102	=102	=102	=102	=102	=102
2E\	.	4g#X/	.	4b\	.	2E\	pec-	4G#X/	pec-	(>4b\	pec-	2ee\	.	2ee\	.	1ryy
.	.	4b/	.	4dd\	.	.	.	4B\	.	4dd\)	.	.	.	.	.	.
.	.	8qqb/	.	8qqdd/	.	.	.	8qqB/	.	.	.	.	.	.	.	.
4E\	.	4a/	.	4cc#\	.	4E\	-ca-	4A\	-ca-	4cc#\	-Ca-	4ee\	.	4ee\	.	.
4E\	.	4g#X/	.	4b\	.	4E\	-ta	4G#X/	-ta	4b\	-ta	4ee\	.	4ee\	.	.
=103	=103	=103	=103	=103	=103	=103	=103	=103	=103	=103	=103	=103	=103	=103	=103	=103
!	!	!	!	!	!	!	!	!LO:SIC:s=4G#	!	!	!	!	!	!	!	!
2E\	.	4g#X/	.	4b\	.	2E\	mun-	(>4G/	mun-	(>4b\	mun-	2ee\	.	2ee\	.	1ryy
.	.	4b/	.	4dd\	.	.	.	4B\)	.	4dd\)	.	.	.	.	.	.
.	.	8qqb/	.	8qqdd/	.	.	.	8qqB/	.	.	.	.	.	.	.	.
4E\	.	4a/	.	4cc#\	.	4E\	.	4A\	.	4cc#\	.	4ee\	.	4ee\	.	.
4E\	.	4g#X/	.	4b\	.	4E\	-di	4G#X/	-di	4b\	-di	4ee\	.	4ee\	.	.
!	!	!	!	!LO:LB:g=original	!	!	!	!	!	!	!	!	!	!	!	!
=104	=104	=104	=104	=104	=104	=104	=104	=104	=104	=104	=104	=104	=104	=104	=104	=104
4D\	.	4a/	.	4ff#\	.	4D\	Do-	4A\	do-	4ff#\	do-	4dd\	.	4ff#\	.	1ryy
4D\	.	4a/	.	4ff#\	.	4D\	-na	4A\	-na	4ff#\	-na	4dd\	.	4ff#\	.	.
!	!	!	!	!	!	!	!	!LO:SIC:s=4G#	!	!	!	!	!	!	!	!
8E\L	.	4b\	.	4gg#X\	.	(>8E\L	no-	4G\	no-	4b\	no-	4ee\	.	4ee\	.	.
8D\	.	.	.	.	.	8D\J)	.	.	.	.	.	.	.	.	.	.
!	!	!	!	!	!	!LO:LB:g=original	!	!	!	!	!	!	!	!	!	!
8C#\	.	8cc#\L	.	8aa\L	.	(<8C#/L	-biſ	(>8A\L	-bis	(>8cc#\L	-bis	4r	.	4r	.	.
8D\J	.	8b\J	.	8dd\J	.	8D/J)	.	8B\J)	.	8dd\J)	.	.	.	.	.	.
!	!	!	!	!	!	!	!	!LO:LB:g=original	!	!LO:LB:g=original	!	!	!	!	!	!
=105	=105	=105	=105	=105	=105	=105	=105	=105	=105	=105	=105	=105	=105	=105	=105	=105
4E\	.	4a/	.	4cc#\	.	2E\	pa-	(>4A\	pa-	(>4cc#\	pa-	8r	.	8r	.	1ryy
.	.	.	.	.	.	.	.	.	.	.	.	16ee\LL	.	16ee\LL	.	.
.	.	.	.	.	.	.	.	.	.	.	.	16ee\JJ	.	16ee\JJ	.	.
!	!	!LO:TX:a:t=t.	!	!LO:TX:a:t=t.	!	!	!	!	!	!	!	!	!	!	!	!
4E\	.	4g#X/	.	4b\	.	.	.	4G#X/)	.	4bT\)	.	8ee\L	.	8ee\L	.	.
.	.	.	.	.	.	.	.	.	.	.	.	8ee\J	.	8ee\J	.	.
4AA/	.	4a/	.	4a\	.	4AA/	-cem	4A\	-cem	4a\	-cem	4a/	.	4ee\	.	.
4r	.	8a/L	.	8cc#\L	.	4r	.	(>8A\L	.	(>8cc#\L	.	4r	.	4r	.	.
.	.	8b/J	.	8dd\J	.	.	.	8B\J)	da	8dd\J)	da	.	.	.	.	.
=106	=106	=106	=106	=106	=106	=106	=106	=106	=106	=106	=106	=106	=106	=106	=106	=106
4r	.	4cc#\	.	4ee\	.	4r	.	4c#\	pa-	4ee\	pa-	4r	.	4r	.	1ryy
4F#\	.	4a#X\	.	4cc#\	.	4F#\	Da	4A#X\	.	4cc#\	.	4f#/	.	4f#/	.	.
4F#\	.	4f#/	.	4a#X\	.	[>2F#\	pa-	4F#/	.	4a#X\	.	4f#/	.	4f#/	.	.
4F#\	.	4a#X/	.	4cc#\	.	.	.	4A#X\	.	4cc#\	.	4f#/	.	4f#/	.	.
=107	=107	=107	=107	=107	=107	=107	=107	=107	=107	=107	=107	=107	=107	=107	=107	=107
4F#\	.	8cc#\L	.	8ee\L	.	2F#\]	.	(>8c#\L	.	8ee\L	.	4f#/	.	4f#/	.	1ryy
.	.	8ee\	.	(>8ggn\	.	.	.	8e\	.	8ggn\	.	.	.	.	.	.
4F#\	.	8dd\	.	8ff#\	.	.	.	8d\	.	8ff#\	.	8f#/L	.	8f#/L	.	.
.	.	8cc#\J	.	8ee\J)	.	.	.	8c#\J)	.	8ee\J	.	8f#/J	.	8f#/J	.	.
!	!	!LO:LB:g=original	!	!	!	!	!	!	!	!	!	!	!	!	!	!
4BB/	.	4b\	.	4dd\	.	4B\	-cem	4B\	-cem	4dd\	-cem	4f#/	.	4f#/	.	.
4r	.	8g#X/L	.	8b\L	.	4r	.	8G#X/L	.	(>8b\L	.	4r	.	4r	.	.
.	.	8a/J	.	8cc#\J	.	.	.	8An/J	da	8cc#\J)	da	.	.	.	.	.
=108	=108	=108	=108	=108	=108	=108	=108	=108	=108	=108	=108	=108	=108	=108	=108	=108
4r	.	4b/	.	4dd\	.	4r	.	4B\	pa-	4dd\	pa-	4r	.	4r	.	1ryy
4E\	.	4g#X/	.	4b\	.	4E\	Da	4G#X/	.	4b\	.	4ee\	.	4ee\	.	.
4E\	.	4e/	.	4g#X\	.	[>2E\	pa-	4E/	.	4g#X\	.	4ee\	.	4ee\	.	.
4E\	.	4g#/	.	4b\	.	.	.	4G#/	.	4b\	.	4ee\	.	4ee\	.	.
!LO:LB:g=original	!	!	!	!	!	!	!	!	!	!	!	!	!	!	!	!
=109	=109	=109	=109	=109	=109	=109	=109	=109	=109	=109	=109	=109	=109	=109	=109	=109
4E\	.	8b\L	.	8dd\L	.	2E\]	.	8B\L	.	8dd\L	.	4ee\	.	4ee\	.	1ryy
.	.	8dd\	.	(>8ff#\	.	.	.	8d\	.	8ff#\	.	.	.	.	.	.
4E\	.	8cc#\	.	8ee\	.	.	.	8c#\	.	8ee\	.	8ee\L	.	8ee\L	.	.
.	.	8b\J	.	8dd\J)	.	.	.	8B\J	.	8dd\J	.	8ee\J	.	8ee\J	.	.
4AA/	.	4a\	.	4cc#\	.	4A\	-cem	4A\	-cem	4cc#\	-cem	4a/	.	4ee\	.	.
4r	.	8cc#\L	.	(>8ee\L	.	4r	.	(>8c#\L	.	8ee\L	.	4r	.	4r	.	.
.	.	8dd\J	.	8ff#\J)	.	.	.	8d\J)	da	8ff#\J	da	.	.	.	.	.
!	!	!	!	!	!	!	!	!	!	!	!	!LO:LB:g=original	!	!LO:LB:g=original	!	!
=110	=110	=110	=110	=110	=110	=110	=110	=110	=110	=110	=110	=110	=110	=110	=110	=110
4r	.	4ee\	.	4ggn\	.	4r	.	4e\	pa-	4ggn\	pa-	4r	.	4r	.	1ryy
4A\	.	4cc#\	.	4ee\	.	4A\	da	4c#\	.	4ee\	.	4a/	.	4ee\	.	.
!	!	!	!	!	!	!	!	!LO:LB:g=original	!	!	!	!	!	!	!	!
4A\	.	4a\	.	4cc#\	.	[>2A\	pa-	4A\	.	4cc#\	.	4a/	.	4ee\	.	.
4A\	.	4cc#\	.	4ee\	.	.	.	4c#\	.	4ee\	.	4a/	.	4ee\	.	.
!	!	!	!	!	!	!LO:LB:g=original	!	!	!	!LO:LB:g=original	!	!	!	!	!	!
=111	=111	=111	=111	=111	=111	=111	=111	=111	=111	=111	=111	=111	=111	=111	=111	=111
4A\	.	2ee\	.	2gg\	.	2A\]	.	2e\	.	2gg\	.	4a/	.	4ee\	.	1ryy
4A\	.	.	.	.	.	.	.	.	.	.	.	8a/L	.	8ee\L	.	.
.	.	.	.	.	.	.	.	.	.	.	.	8a/J	.	8ee\J	.	.
4D\	.	4dd\	.	4ff#\	.	4D\	-cem	4d\	-cem	4ff#\	-cem	4dd\	.	4ff#\	.	.
4D\	.	4a\	.	4ff#\	.	[>4D\	do-	4A\	do-	4ff#\	do-	4dd\	.	4ff#\	.	.
=112	=112	=112	=112	=112	=112	=112	=112	=112	=112	=112	=112	=112	=112	=112	=112	=112
4D\	.	4a\	.	4ff#\	.	4D\]	.	2d\	-na	2ff#\	-na	4dd\	.	4ff#\	.	1ryy
4G\	.	4ff#\	.	4ddd\	.	4G\	-na	.	.	.	.	4dd\	.	4ff#\	.	.
4A\	.	4ee\	.	4ccc#\	.	4A\	no-	4c#\	no-	4ee\	no-	4a\	.	4ee\	.	.
4D\	.	4ff#\	.	4ddd\	.	4AA/	-biſ	4d\	-bis	4ff#\	-biſ	4dd\	.	4ff#\	.	.
=113	=113	=113	=113	=113	=113	=113	=113	=113	=113	=113	=113	=113	=113	=113	=113	=113
4A\	.	4cc#\	.	4ee\	.	4A\	pa-	2c#\	pa-	2ee\	pa-	4a\	.	4ee\	.	1ryy
4AA/	.	4ee\	.	4ccc#\	.	4AA/	.	.	.	.	.	4a\	.	4ee\	.	.
4D/	.	4ff#\	.	4ddd\	.	4D\	-cem	4d\	-cem	4ff#\	-cem	4dd\	.	4ff#\	.	.
!	!	!LO:TX:b:t=Dona nobis ut Kirie All(egr)o	!	!	!	!	!	!	!	!	!	!	!	!	!	!
!	!	!	!	!LO:TX:b:t=Dona nobis ut Kirie All(egr)o	!	!	!	!	!	!	!	!	!	!	!	!
4r	.	4r	.	4r	.	4r	.	4r	.	4r	.	4r	.	4r	.	.
!LO:TX:b:t=Dona nobis ut Kirie All(egr)o	!	!	!	!	!	!LO:TX:b:t=Dona nobis ut Kirie all(egr)o.	!	!	!	!LO:TX:b:t=Dona nobis ut Kirie all(egr)o.	!	!	!	!	!	!
!	!	!	!	!	!	!	!	!	!	!	!	!	!	!LO:TX:t=P:problem=w źródle "Dona nobis ut Kirie Allo" zapisane na pięciolinii, za taktem 113	!	!
!	!	!	!	!	!	!	!	!LO:TX:b:t=Dona nobis ut Kirie all(egr)o.	!	!	!	!	!	!LO:TX:b:t=Dona nobis ut Kirie All(egr)o	!	!
==	==	==	==	==	==	==	==	==	==	==	==	==	==	==	==	==
*-	*-	*-	*-	*-	*-	*-	*-	*-	*-	*-	*-	*-	*-	*-	*-	*-
!!!system-decoration: [(s1)][(s2,s3)][(s4,s5,s6)][(s7,s8)][(s9)]
!!!RDF**kern: > = above
!!!RDF**kern: < = below
!!!RDF**kern: | = vertical stroke
!!!EED: Antoni Szymański
!!!EEV: 2020-10-08
!!!ENC: Kamil Watkowski
!!!END: 2020-05-20
!!!YEC: Copyright 2022 Narodowy Instytut Fryderyka Chopina (https://polishscores.org)
!!!YEM: Licence CC BY 4.0 (https://creativecommons.org/licenses/by/4.0)
